; Generated on June 12, 2018
; Print Settings
; Layer Height: 0.2
; Nozzle Diameter: 0.4  Filament Diameter: 1.75
; Extruder Temp: 230
; Speeds Extrude: 5400  Travel: 9000 Z: 1380
; Retract Distance: 1.3  Speed: 1500
; Shells: 2  InteriorShells: 0
; RoofLayers: 2  FloorLayers: 2
; InfillX: 5
; Support: True  Angle 35 SpacingX: 5  Shell: True  Gap: 0.349999994039536  VolScale: 1
; ClipOverlaps: False  Tolerance: 0.75
; LayerRange: 0-999999999
; Model: Makerbot Replicator2
M136 (enable build)
M73 P0 
G162 X Y F2000 (home XY axes maximum)
G161 Z F900 (home Z axis minimum)
G92 X0 Y0 Z-5 A0 B0 (set Z to -5)
G1 Z0 F900 (move Z to '0')
G161 Z F100 (home Z axis minimum)
M132 X Y Z A B (Recall stored home offsets for XYZAB axis)
G92 X152 Y75 Z0 A0 B0 
G1 X-141 Y-74 Z40 F3300 (move to waiting position)
G130 X20 Y20 A20 B20 (Lower stepper Vrefs while heating)
M135 T0 
M104 S230 T0 
M133 T0 
G130 X127 Y127 A127 B127 (Set Stepper motor Vref to defaults)
G1 X105.4 Y-74 Z0.27 F9000 (Extruder Prime Dry Move)
G1 X-141 Y-74 Z0.27 F1800 E25 (Extruder Prime Start)
G92 A0 B0 (Reset after prime)
G1 Z0 F1000 
G92 E0 
M73 P0 
;layer 0 - 0mm
G1 X-141 Y-74 Z0 F1000 E0 
G1 X-141 Y-74 Z0 F1500 E-1.3 ;Retract
G1 X-141 Y-74 Z0 F3000 ;Retract 2?
G1 X-141 Y-74 Z0.2 F1380 ;Plane Change
G1 X-10.6682 Y-6.1133 Z0.2 F9000 ;Travel
G1 X-10.6682 Y-6.1133 Z0.2 F1500 E0 ;End Retract
G1 X-10.61675 Y-6.19901 Z0.2 F900 E0.00333 
G1 X-9.4452 Y-7.8723 Z0.2 F900 E0.07127 
G1 X-9.37969 Y-7.94781 Z0.2 F900 E0.07459 
G1 X-7.9351 Y-9.3923 Z0.2 F900 E0.14254 
G1 X-7.85756 Y-9.4554 Z0.2 F900 E0.14586 
G1 X-6.1828 Y-10.6281 Z0.2 F900 E0.21386 
G1 X-6.09543 Y-10.67667 Z0.2 F900 E0.21719 
G1 X-4.2433 Y-11.5402 Z0.2 F900 E0.28516 
G1 X-4.14881 Y-11.57283 Z0.2 F900 E0.28849 
G1 X-2.175 Y-12.1017 Z0.2 F900 E0.35645 
G1 X-2.0763 Y-12.11754 Z0.2 F900 E0.35978 
G1 X-0.0408 Y-12.2956 Z0.2 F900 E0.42774 
G1 X0.05915 Y-12.29403 Z0.2 F900 E0.43106 
G1 X2.0943 Y-12.116 Z0.2 F900 E0.49901 
G1 X2.19247 Y-12.09713 Z0.2 F900 E0.50234 
G1 X4.1672 Y-11.568 Z0.2 F900 E0.57033 
G1 X4.26051 Y-11.53214 Z0.2 F900 E0.57366 
G1 X6.113 Y-10.6684 Z0.2 F900 E0.64164 
G1 X6.19877 Y-10.61706 Z0.2 F900 E0.64497 
G1 X7.8723 Y-9.4451 Z0.2 F900 E0.71292 
G1 X7.94781 Y-9.37959 Z0.2 F900 E0.71625 
G1 X9.3924 Y-7.9351 Z0.2 F900 E0.78419 
G1 X9.4555 Y-7.85756 Z0.2 F900 E0.78752 
G1 X10.6281 Y-6.1828 Z0.2 F900 E0.85552 
G1 X10.67667 Y-6.09543 Z0.2 F900 E0.85884 
G1 X11.5405 Y-4.2431 Z0.2 F900 E0.92682 
G1 X11.573 Y-4.14857 Z0.2 F900 E0.93015 
G1 X12.1017 Y-2.175 Z0.2 F900 E0.9981 
G1 X12.11755 Y-2.0763 Z0.2 F900 E1.00143 
G1 X12.2956 Y-0.0408 Z0.2 F900 E1.06939 
G1 X12.29402 Y0.05915 Z0.2 F900 E1.07272 
G1 X12.116 Y2.0943 Z0.2 F900 E1.14066 
G1 X12.0971 Y2.19246 Z0.2 F900 E1.14399 
G1 X11.5681 Y4.1671 Z0.2 F900 E1.21198 
G1 X11.53224 Y4.26041 Z0.2 F900 E1.21531 
G1 X10.6686 Y6.1127 Z0.2 F900 E1.28328 
G1 X10.61725 Y6.19847 Z0.2 F900 E1.28661 
G1 X9.4452 Y7.8723 Z0.2 F900 E1.35457 
G1 X9.37969 Y7.94781 Z0.2 F900 E1.3579 
G1 X7.9346 Y9.3929 Z0.2 F900 E1.42587 
G1 X7.85702 Y9.45594 Z0.2 F900 E1.4292 
G1 X6.1833 Y10.6278 Z0.2 F900 E1.49715 
G1 X6.09594 Y10.67639 Z0.2 F900 E1.50048 
G1 X4.2427 Y11.5406 Z0.2 F900 E1.56849 
G1 X4.14816 Y11.57306 Z0.2 F900 E1.57182 
G1 X2.1751 Y12.1017 Z0.2 F900 E1.63976 
G1 X2.0764 Y12.11754 Z0.2 F900 E1.64308 
G1 X0.0409 Y12.2956 Z0.2 F900 E1.71104 
G1 X-0.05905 Y12.29403 Z0.2 F900 E1.71437 
G1 X-2.0942 Y12.116 Z0.2 F900 E1.78232 
G1 X-2.19237 Y12.09713 Z0.2 F900 E1.78564 
G1 X-4.1673 Y11.568 Z0.2 F900 E1.85365 
G1 X-4.26067 Y11.53232 Z0.2 F900 E1.85697 
G1 X-6.1126 Y10.6686 Z0.2 F900 E1.92494 
G1 X-6.19837 Y10.61725 Z0.2 F900 E1.92826 
G1 X-7.8722 Y9.4453 Z0.2 F900 E1.99622 
G1 X-7.94771 Y9.37979 Z0.2 F900 E1.99955 
G1 X-9.3928 Y7.9347 Z0.2 F900 E2.06752 
G1 X-9.45575 Y7.85705 Z0.2 F900 E2.07085 
G1 X-10.6278 Y6.1833 Z0.2 F900 E2.13881 
G1 X-10.67639 Y6.09594 Z0.2 F900 E2.14214 
G1 X-11.5406 Y4.2427 Z0.2 F900 E2.21015 
G1 X-11.57306 Y4.14816 Z0.2 F900 E2.21347 
G1 X-12.1017 Y2.175 Z0.2 F900 E2.28141 
G1 X-12.11755 Y2.0763 Z0.2 F900 E2.28474 
G1 X-12.2956 Y0.0408 Z0.2 F900 E2.3527 
G1 X-12.29402 Y-0.05915 Z0.2 F900 E2.35603 
G1 X-12.116 Y-2.0943 Z0.2 F900 E2.42397 
G1 X-12.09713 Y-2.19247 Z0.2 F900 E2.4273 
G1 X-11.568 Y-4.1675 Z0.2 F900 E2.49531 
G1 X-11.53212 Y-4.2608 Z0.2 F900 E2.49863 
G1 X-10.6682 Y-6.1133 Z0.2 F900 E2.56662 
G1 X-10.3134 Y-5.9278 Z0.2 F9000 ;Travel
G1 X-10.25944 Y-6.01189 Z0.2 F900 E2.56994 
G1 X-9.128 Y-7.6278 Z0.2 F900 E2.63555 
G1 X-9.06041 Y-7.70139 Z0.2 F900 E2.63888 
G1 X-7.6658 Y-9.0959 Z0.2 F900 E2.70448 
G1 X-7.5866 Y-9.15681 Z0.2 F900 E2.7078 
G1 X-5.9685 Y-10.2898 Z0.2 F900 E2.7735 
G1 X-5.87984 Y-10.33586 Z0.2 F900 E2.77683 
G1 X-4.0918 Y-11.1695 Z0.2 F900 E2.84244 
G1 X-3.99649 Y-11.19948 Z0.2 F900 E2.84577 
G1 X-2.0891 Y-11.7106 Z0.2 F900 E2.91145 
G1 X-1.99003 Y-11.72356 Z0.2 F900 E2.91477 
G1 X-0.0243 Y-11.8955 Z0.2 F900 E2.9804 
G1 X0.07552 Y-11.89105 Z0.2 F900 E2.98373 
G1 X2.0414 Y-11.7191 Z0.2 F900 E3.04937 
G1 X2.13892 Y-11.69732 Z0.2 F900 E3.05269 
G1 X4.046 Y-11.1863 Z0.2 F900 E3.11836 
G1 X4.13823 Y-11.14787 Z0.2 F900 E3.12168 
G1 X5.9265 Y-10.3141 Z0.2 F900 E3.18731 
G1 X6.01078 Y-10.26043 Z0.2 F900 E3.19064 
G1 X7.6276 Y-9.1281 Z0.2 F900 E3.25629 
G1 X7.70119 Y-9.06051 Z0.2 F900 E3.25961 
G1 X9.096 Y-7.6658 Z0.2 F900 E3.32522 
G1 X9.15691 Y-7.58659 Z0.2 F900 E3.32855 
G1 X10.2898 Y-5.9685 Z0.2 F900 E3.39424 
G1 X10.33586 Y-5.87983 Z0.2 F900 E3.39757 
G1 X11.1699 Y-4.0913 Z0.2 F900 E3.46321 
G1 X11.19978 Y-3.99595 Z0.2 F900 E3.46653 
G1 X11.7106 Y-2.0892 Z0.2 F900 E3.53219 
G1 X11.72354 Y-1.99012 Z0.2 F900 E3.53551 
G1 X11.8955 Y-0.0243 Z0.2 F900 E3.60115 
G1 X11.89104 Y0.07552 Z0.2 F900 E3.60447 
G1 X11.7191 Y2.0412 Z0.2 F900 E3.6701 
G1 X11.69739 Y2.13873 Z0.2 F900 E3.67343 
G1 X11.1864 Y4.0459 Z0.2 F900 E3.7391 
G1 X11.14797 Y4.13813 Z0.2 F900 E3.74242 
G1 X10.314 Y5.9268 Z0.2 F900 E3.80806 
G1 X10.26019 Y6.01099 Z0.2 F900 E3.81139 
G1 X9.128 Y7.6278 Z0.2 F900 E3.87704 
G1 X9.06046 Y7.70144 Z0.2 F900 E3.88036 
G1 X7.6656 Y9.0963 Z0.2 F900 E3.94597 
G1 X7.58633 Y9.15713 Z0.2 F900 E3.9493 
G1 X5.969 Y10.2896 Z0.2 F900 E4.01497 
G1 X5.88032 Y10.33563 Z0.2 F900 E4.0183 
G1 X4.0908 Y11.1701 Z0.2 F900 E4.08397 
G1 X3.99542 Y11.19987 Z0.2 F900 E4.08729 
G1 X2.0892 Y11.7106 Z0.2 F900 E4.15293 
G1 X1.99013 Y11.72356 Z0.2 F900 E4.15626 
G1 X0.0244 Y11.8955 Z0.2 F900 E4.22189 
G1 X-0.07542 Y11.89105 Z0.2 F900 E4.22521 
G1 X-2.0413 Y11.7191 Z0.2 F900 E4.29085 
G1 X-2.13882 Y11.69732 Z0.2 F900 E4.29417 
G1 X-4.046 Y11.1864 Z0.2 F900 E4.35984 
G1 X-4.13827 Y11.14808 Z0.2 F900 E4.36317 
G1 X-5.9271 Y10.3138 Z0.2 F900 E4.42882 
G1 X-6.01126 Y10.25993 Z0.2 F900 E4.43215 
G1 X-7.6271 Y9.1286 Z0.2 F900 E4.49775 
G1 X-7.70079 Y9.06111 Z0.2 F900 E4.50108 
G1 X-9.0967 Y7.6652 Z0.2 F900 E4.56674 
G1 X-9.15732 Y7.58577 Z0.2 F900 E4.57006 
G1 X-10.2896 Y5.9689 Z0.2 F900 E4.63572 
G1 X-10.33567 Y5.88024 Z0.2 F900 E4.63904 
G1 X-11.1701 Y4.0908 Z0.2 F900 E4.70471 
G1 X-11.19987 Y3.99542 Z0.2 F900 E4.70804 
G1 X-11.7106 Y2.0892 Z0.2 F900 E4.77368 
G1 X-11.72354 Y1.99012 Z0.2 F900 E4.777 
G1 X-11.8955 Y0.0243 Z0.2 F900 E4.84263 
G1 X-11.89104 Y-0.07552 Z0.2 F900 E4.84596 
G1 X-11.7191 Y-2.0414 Z0.2 F900 E4.9116 
G1 X-11.69732 Y-2.13892 Z0.2 F900 E4.91492 
G1 X-11.1865 Y-4.0458 Z0.2 F900 E4.98058 
G1 X-11.14798 Y-4.138 Z0.2 F900 E4.98391 
G1 X-10.3134 Y-5.9278 Z0.2 F900 E5.04959 
G1 X-8.89617 Y-7.43567 Z0.2 F9000 ;Travel
G1 X-7.43534 Y-8.8965 Z0.2 F1800 E5.1183 
G1 X-5.8076 Y-10.0363 Z0.2 F1800 E5.1844 
G1 X-5.64389 Y-10.1149 Z0.2 F1800 E5.19044 
G1 X-10.11473 Y-5.64406 Z0.2 F1800 E5.40073 
G1 X-10.61545 Y-4.57029 Z0.2 F1800 E5.44014 
G1 X-4.57034 Y-10.6154 Z0.2 F1800 E5.72448 
G1 X-3.62393 Y-10.98875 Z0.2 F1800 E5.75832 
G1 X-10.9889 Y-3.62379 Z0.2 F1800 E6.10474 
G1 X-11.19862 Y-2.84102 Z0.2 F1800 E6.1317 
G1 X-2.84116 Y-11.19848 Z0.2 F1800 E6.52481 
G1 X-2.05838 Y-11.4082 Z0.2 F1800 E6.55176 
G1 X-11.40833 Y-2.05825 Z0.2 F1800 E6.99155 
G1 X-11.47215 Y-1.42137 Z0.2 F1800 E7.01284 
G1 X-1.42139 Y-11.47214 Z0.2 F1800 E7.4856 
G1 X-0.79342 Y-11.52706 Z0.2 F1800 E7.50656 
G1 X-11.5271 Y-0.79338 Z0.2 F1800 E8.01144 
G1 X-11.58205 Y-0.16538 Z0.2 F1800 E8.03241 
G1 X-0.16545 Y-11.58197 Z0.2 F1800 E8.56941 
G1 X0.3882 Y-11.56257 Z0.2 F1800 E8.58784 
G1 X-11.56249 Y0.38812 Z0.2 F1800 E9.14996 
G1 X-11.51639 Y0.91507 Z0.2 F1800 E9.16756 
G1 X0.91515 Y-11.51647 Z0.2 F1800 E9.7523 
G1 X1.44211 Y-11.47038 Z0.2 F1800 E9.76989 
G1 X-11.47029 Y1.44203 Z0.2 F1800 E10.37725 
G1 X-11.4242 Y1.96898 Z0.2 F1800 E10.39484 
G1 X1.96907 Y-11.42428 Z0.2 F1800 E11.02482 
G1 X2.42728 Y-11.30944 Z0.2 F1800 E11.04053 
G1 X-11.30947 Y2.42731 Z0.2 F1800 E11.68667 
G1 X-11.18836 Y2.87925 Z0.2 F1800 E11.70223 
G1 X2.87923 Y-11.18834 Z0.2 F1800 E12.36393 
G1 X3.33117 Y-11.06723 Z0.2 F1800 E12.37949 
G1 X-11.06725 Y3.33119 Z0.2 F1800 E13.05675 
G1 X-10.94614 Y3.78313 Z0.2 F1800 E13.07231 
G1 X3.78312 Y-10.94612 Z0.2 F1800 E13.76513 
G1 X4.19877 Y-10.78872 Z0.2 F1800 E13.77991 
G1 X-10.78876 Y4.1988 Z0.2 F1800 E14.48488 
G1 X-10.60652 Y4.58962 Z0.2 F1800 E14.49922 
G1 X4.5896 Y-10.6065 Z0.2 F1800 E15.214 
G1 X4.98042 Y-10.42427 Z0.2 F1800 E15.22834 
G1 X-10.42428 Y4.98043 Z0.2 F1800 E15.95293 
G1 X-10.24203 Y5.37124 Z0.2 F1800 E15.96727 
G1 X5.37125 Y-10.24205 Z0.2 F1800 E16.70167 
G1 X5.76208 Y-10.05982 Z0.2 F1800 E16.71602 
G1 X-10.05979 Y5.76205 Z0.2 F1800 E17.46023 
G1 X-9.82872 Y6.10403 Z0.2 F1800 E17.47396 
G1 X6.10414 Y-9.82883 Z0.2 F1800 E18.22339 
G1 X6.44116 Y-9.59279 Z0.2 F1800 E18.23707 
G1 X-9.59271 Y6.44107 Z0.2 F1800 E18.99126 
G1 X-9.35669 Y6.7781 Z0.2 F1800 E19.00494 
G1 X6.77817 Y-9.35676 Z0.2 F1800 E19.76388 
G1 X7.11519 Y-9.12072 Z0.2 F1800 E19.77756 
G1 X-9.12067 Y7.11514 Z0.2 F1800 E20.54125 
G1 X-8.884 Y7.45152 Z0.2 F1800 E20.55493 
G1 X7.45154 Y-8.88402 Z0.2 F1800 E21.3233 
G1 X7.739 Y-8.59842 Z0.2 F1800 E21.33678 
G1 X-8.59857 Y7.73915 Z0.2 F1800 E22.10525 
G1 X-8.31206 Y8.02568 Z0.2 F1800 E22.11872 
G1 X8.02553 Y-8.31191 Z0.2 F1800 E22.88719 
G1 X8.31207 Y-8.02539 Z0.2 F1800 E22.90067 
G1 X-8.02554 Y8.31222 Z0.2 F1800 E23.66914 
G1 X-7.73903 Y8.59875 Z0.2 F1800 E23.68262 
G1 X8.5986 Y-7.73888 Z0.2 F1800 E24.45109 
G1 X8.88411 Y-7.45133 Z0.2 F1800 E24.46457 
G1 X-7.45144 Y8.88422 Z0.2 F1800 E25.23294 
G1 X-7.11503 Y9.12086 Z0.2 F1800 E25.24662 
G1 X9.12088 Y-7.11505 Z0.2 F1800 E26.01031 
G1 X9.35686 Y-6.77797 Z0.2 F1800 E26.024 
G1 X-6.77797 Y9.35685 Z0.2 F1800 E26.78293 
G1 X-6.44091 Y9.59284 Z0.2 F1800 E26.79661 
G1 X9.59284 Y-6.4409 Z0.2 F1800 E27.55079 
G1 X9.82882 Y-6.10383 Z0.2 F1800 E27.56448 
G1 X-6.10384 Y9.82884 Z0.2 F1800 E28.3139 
G1 X-5.76186 Y10.0599 Z0.2 F1800 E28.32763 
G1 X10.05985 Y-5.76181 Z0.2 F1800 E29.07183 
G1 X10.24211 Y-5.37101 Z0.2 F1800 E29.08618 
G1 X-5.37105 Y10.24215 Z0.2 F1800 E29.82057 
G1 X-4.98024 Y10.42439 Z0.2 F1800 E29.83491 
G1 X10.42436 Y-4.98022 Z0.2 F1800 E30.5595 
G1 X10.60662 Y-4.58942 Z0.2 F1800 E30.57384 
G1 X-4.58943 Y10.60663 Z0.2 F1800 E31.28862 
G1 X-4.19862 Y10.78887 Z0.2 F1800 E31.30296 
G1 X10.78888 Y-4.19863 Z0.2 F1800 E32.00792 
G1 X10.94625 Y-3.78294 Z0.2 F1800 E32.02271 
G1 X-3.78296 Y10.94627 Z0.2 F1800 E32.71553 
G1 X-3.33099 Y11.06735 Z0.2 F1800 E32.73109 
G1 X11.06735 Y-3.33099 Z0.2 F1800 E33.40834 
G1 X11.18845 Y-2.87904 Z0.2 F1800 E33.4239 
G1 X-2.87902 Y11.18843 Z0.2 F1800 E34.08559 
G1 X-2.42705 Y11.30951 Z0.2 F1800 E34.10116 
G1 X11.30955 Y-2.42709 Z0.2 F1800 E34.74728 
G1 X11.42422 Y-1.96871 Z0.2 F1800 E34.763 
G1 X-1.96878 Y11.4243 Z0.2 F1800 E35.39297 
G1 X-1.44183 Y11.47039 Z0.2 F1800 E35.41056 
G1 X11.47032 Y-1.44175 Z0.2 F1800 E36.01791 
G1 X11.51642 Y-0.9148 Z0.2 F1800 E36.0355 
G1 X-0.91487 Y11.51649 Z0.2 F1800 E36.62023 
G1 X-0.38791 Y11.56258 Z0.2 F1800 E36.63782 
G1 X11.56251 Y-0.38784 Z0.2 F1800 E37.19993 
G1 X11.58202 Y0.1657 Z0.2 F1800 E37.21836 
G1 X0.16577 Y11.58195 Z0.2 F1800 E37.75534 
G1 X0.79374 Y11.52704 Z0.2 F1800 E37.77631 
G1 X11.52708 Y0.79369 Z0.2 F1800 E38.28117 
G1 X11.47215 Y1.42168 Z0.2 F1800 E38.30214 
G1 X1.42171 Y11.47212 Z0.2 F1800 E38.77488 
G1 X2.05875 Y11.40813 Z0.2 F1800 E38.79618 
G1 X11.40821 Y2.05867 Z0.2 F1800 E39.23595 
G1 X11.19848 Y2.84145 Z0.2 F1800 E39.2629 
G1 X2.84153 Y11.19841 Z0.2 F1800 E39.65598 
G1 X3.62431 Y10.98868 Z0.2 F1800 E39.68294 
G1 X10.98876 Y3.62422 Z0.2 F1800 E40.02934 
G1 X10.61541 Y4.57063 Z0.2 F1800 E40.06318 
G1 X4.57073 Y10.61531 Z0.2 F1800 E40.3475 
G1 X5.64453 Y10.11456 Z0.2 F1800 E40.38691 
G1 X10.11485 Y5.64424 Z0.2 F1800 E40.59718 
G1 X8.8958 Y7.43634 Z0.2 F1800 E40.66927 
G1 X7.43627 Y8.89587 Z0.2 F1800 E40.73792 
;layer 1 - 0.2mm
G1 X7.43627 Y8.89587 Z0.2 F1500 E39.43792 ;Retract
G1 X7.43627 Y8.89587 Z0.2 F3000 ;Retract 2?
G1 X7.43627 Y8.89587 Z0.4 F1380 ;Plane Change
G1 X7.5329 Y9.1946 Z0.4 F9000 ;Travel
G1 X7.5329 Y9.1946 Z0.4 F1500 E40.73792 ;End Retract
G1 X6.0492 Y10.2333 Z0.4 F2700 E40.79816 
G1 X5.8215 Y10.363 Z0.4 F2700 E40.80687 
G1 X4.1796 Y11.1286 Z0.4 F2700 E40.86713 
G1 X3.9351 Y11.216 Z0.4 F2700 E40.87576 
G1 X2.183 Y11.6856 Z0.4 F2700 E40.9361 
G1 X1.9272 Y11.729 Z0.4 F2700 E40.94473 
G1 X0.1216 Y11.887 Z0.4 F2700 E41.00501 
G1 X-0.1392 Y11.8855 Z0.4 F2700 E41.01368 
G1 X-1.9439 Y11.7276 Z0.4 F2700 E41.07394 
G1 X-2.2006 Y11.6808 Z0.4 F2700 E41.08262 
G1 X-3.9523 Y11.2114 Z0.4 F2700 E41.14293 
G1 X-4.1948 Y11.1216 Z0.4 F2700 E41.15154 
G1 X-5.8392 Y10.3548 Z0.4 F2700 E41.21188 
G1 X-6.0626 Y10.224 Z0.4 F2700 E41.22049 
G1 X-7.5477 Y9.1842 Z0.4 F2700 E41.28079 
G1 X-7.7471 Y9.0148 Z0.4 F2700 E41.28949 
G1 X-9.0276 Y7.7343 Z0.4 F2700 E41.34972 
G1 X-9.1941 Y7.5335 Z0.4 F2700 E41.3584 
G1 X-10.2333 Y6.0492 Z0.4 F2700 E41.41866 
G1 X-10.3628 Y5.822 Z0.4 F2700 E41.42736 
G1 X-11.1285 Y4.1799 Z0.4 F2700 E41.48763 
G1 X-11.2162 Y3.9343 Z0.4 F2700 E41.4963 
G1 X-11.6854 Y2.1833 Z0.4 F2700 E41.55659 
G1 X-11.7293 Y1.9254 Z0.4 F2700 E41.56529 
G1 X-11.887 Y0.1217 Z0.4 F2700 E41.62551 
G1 X-11.8854 Y-0.1394 Z0.4 F2700 E41.6342 
G1 X-11.7275 Y-1.9448 Z0.4 F2700 E41.69447 
G1 X-11.6809 Y-2.1999 Z0.4 F2700 E41.7031 
G1 X-11.2116 Y-3.952 Z0.4 F2700 E41.76343 
G1 X-11.1211 Y-4.1958 Z0.4 F2700 E41.77208 
G1 X-10.3551 Y-5.8384 Z0.4 F2700 E41.83236 
G1 X-10.2235 Y-6.0633 Z0.4 F2700 E41.84103 
G1 X-9.1838 Y-7.5482 Z0.4 F2700 E41.90132 
G1 X-9.015 Y-7.7469 Z0.4 F2700 E41.90999 
G1 X-7.7342 Y-9.0277 Z0.4 F2700 E41.97023 
G1 X-7.5334 Y-9.1942 Z0.4 F2700 E41.97891 
G1 X-6.0486 Y-10.2338 Z0.4 F2700 E42.0392 
G1 X-5.822 Y-10.3628 Z0.4 F2700 E42.04787 
G1 X-4.1794 Y-11.1286 Z0.4 F2700 E42.10815 
G1 X-3.9349 Y-11.216 Z0.4 F2700 E42.11678 
G1 X-2.1832 Y-11.6854 Z0.4 F2700 E42.1771 
G1 X-1.9261 Y-11.7292 Z0.4 F2700 E42.18578 
G1 X-0.1216 Y-11.887 Z0.4 F2700 E42.24602 
G1 X0.1395 Y-11.8854 Z0.4 F2700 E42.25471 
G1 X1.9449 Y-11.7275 Z0.4 F2700 E42.31498 
G1 X2.1998 Y-11.6809 Z0.4 F2700 E42.3236 
G1 X3.9523 Y-11.2113 Z0.4 F2700 E42.38395 
G1 X4.1955 Y-11.1213 Z0.4 F2700 E42.39257 
G1 X5.8388 Y-10.3549 Z0.4 F2700 E42.45288 
G1 X6.0633 Y-10.2235 Z0.4 F2700 E42.46153 
G1 X7.5482 Y-9.1838 Z0.4 F2700 E42.52182 
G1 X7.7469 Y-9.015 Z0.4 F2700 E42.53049 
G1 X9.0277 Y-7.7342 Z0.4 F2700 E42.59074 
G1 X9.1942 Y-7.5334 Z0.4 F2700 E42.59942 
G1 X10.234 Y-6.0483 Z0.4 F2700 E42.65971 
G1 X10.3623 Y-5.823 Z0.4 F2700 E42.66834 
G1 X11.129 Y-4.1792 Z0.4 F2700 E42.72866 
G1 X11.216 Y-3.9352 Z0.4 F2700 E42.73728 
G1 X11.6854 Y-2.1833 Z0.4 F2700 E42.7976 
G1 X11.7292 Y-1.9264 Z0.4 F2700 E42.80627 
G1 X11.887 Y-0.1218 Z0.4 F2700 E42.86652 
G1 X11.8854 Y0.1394 Z0.4 F2700 E42.87521 
G1 X11.7276 Y1.9441 Z0.4 F2700 E42.93546 
G1 X11.6808 Y2.2006 Z0.4 F2700 E42.94414 
G1 X11.2114 Y3.9521 Z0.4 F2700 E43.00445 
G1 X11.1214 Y4.1953 Z0.4 F2700 E43.01307 
G1 X10.3547 Y5.8393 Z0.4 F2700 E43.07341 
G1 X10.2239 Y6.0627 Z0.4 F2700 E43.08202 
G1 X9.184 Y7.5477 Z0.4 F2700 E43.14231 
G1 X9.0151 Y7.7467 Z0.4 F2700 E43.15099 
G1 X7.7341 Y9.0277 Z0.4 F2700 E43.21125 
G1 X7.5329 Y9.1946 Z0.4 F2700 E43.21994 
G1 X7.776 Y9.5127 Z0.4 F9000 ;Travel
G1 X6.2632 Y10.5718 Z0.4 F2700 E43.28136 
G1 X6.0062 Y10.7182 Z0.4 F2700 E43.2912 
G1 X4.3311 Y11.4993 Z0.4 F2700 E43.35268 
G1 X4.0544 Y11.5982 Z0.4 F2700 E43.36245 
G1 X2.2692 Y12.0766 Z0.4 F2700 E43.42392 
G1 X1.9773 Y12.1262 Z0.4 F2700 E43.43377 
G1 X0.1381 Y12.2871 Z0.4 F2700 E43.49517 
G1 X-0.158 Y12.2854 Z0.4 F2700 E43.50502 
G1 X-1.997 Y12.1245 Z0.4 F2700 E43.56642 
G1 X-2.2887 Y12.0713 Z0.4 F2700 E43.57628 
G1 X-4.0735 Y11.5931 Z0.4 F2700 E43.63774 
G1 X-4.3492 Y11.491 Z0.4 F2700 E43.64752 
G1 X-6.0247 Y10.7096 Z0.4 F2700 E43.70901 
G1 X-6.2793 Y10.5606 Z0.4 F2700 E43.71882 
G1 X-7.7922 Y9.5013 Z0.4 F2700 E43.78025 
G1 X-8.0179 Y9.3096 Z0.4 F2700 E43.7901 
G1 X-9.3238 Y8.0037 Z0.4 F2700 E43.85152 
G1 X-9.5127 Y7.7759 Z0.4 F2700 E43.86136 
G1 X-10.5718 Y6.2632 Z0.4 F2700 E43.92278 
G1 X-10.7182 Y6.0062 Z0.4 F2700 E43.93262 
G1 X-11.4989 Y4.3321 Z0.4 F2700 E43.99406 
G1 X-11.5985 Y4.0532 Z0.4 F2700 E44.00391 
G1 X-12.0765 Y2.2692 Z0.4 F2700 E44.06534 
G1 X-12.1263 Y1.9769 Z0.4 F2700 E44.0752 
G1 X-12.2871 Y0.138 Z0.4 F2700 E44.13659 
G1 X-12.2853 Y-0.1582 Z0.4 F2700 E44.14645 
G1 X-12.1244 Y-1.9983 Z0.4 F2700 E44.20788 
G1 X-12.0715 Y-2.2878 Z0.4 F2700 E44.21767 
G1 X-11.5932 Y-4.0734 Z0.4 F2700 E44.27915 
G1 X-11.4906 Y-4.3497 Z0.4 F2700 E44.28896 
G1 X-10.7095 Y-6.0249 Z0.4 F2700 E44.35043 
G1 X-10.5604 Y-6.2795 Z0.4 F2700 E44.36025 
G1 X-9.501 Y-7.7926 Z0.4 F2700 E44.42168 
G1 X-9.3096 Y-8.0179 Z0.4 F2700 E44.43151 
G1 X-8.0035 Y-9.324 Z0.4 F2700 E44.49295 
G1 X-7.7758 Y-9.5128 Z0.4 F2700 E44.50279 
G1 X-6.263 Y-10.572 Z0.4 F2700 E44.56421 
G1 X-6.0061 Y-10.7183 Z0.4 F2700 E44.57404 
G1 X-4.3309 Y-11.4993 Z0.4 F2700 E44.63552 
G1 X-4.0542 Y-11.5982 Z0.4 F2700 E44.64529 
G1 X-2.2691 Y-12.0765 Z0.4 F2700 E44.70676 
G1 X-1.9768 Y-12.1263 Z0.4 F2700 E44.71662 
G1 X-0.1379 Y-12.2871 Z0.4 F2700 E44.77801 
G1 X0.1583 Y-12.2853 Z0.4 F2700 E44.78787 
G1 X1.9984 Y-12.1244 Z0.4 F2700 E44.8493 
G1 X2.2878 Y-12.0715 Z0.4 F2700 E44.85909 
G1 X4.0739 Y-11.5929 Z0.4 F2700 E44.92059 
G1 X4.3495 Y-11.4908 Z0.4 F2700 E44.93036 
G1 X6.0249 Y-10.7095 Z0.4 F2700 E44.99185 
G1 X6.2795 Y-10.5604 Z0.4 F2700 E45.00166 
G1 X7.7926 Y-9.501 Z0.4 F2700 E45.0631 
G1 X8.0179 Y-9.3096 Z0.4 F2700 E45.07293 
G1 X9.324 Y-8.0035 Z0.4 F2700 E45.13436 
G1 X9.5128 Y-7.7758 Z0.4 F2700 E45.1442 
G1 X10.5722 Y-6.2627 Z0.4 F2700 E45.20564 
G1 X10.718 Y-6.0066 Z0.4 F2700 E45.21544 
G1 X11.4992 Y-4.3317 Z0.4 F2700 E45.27691 
G1 X11.5984 Y-4.0536 Z0.4 F2700 E45.28673 
G1 X12.0765 Y-2.2692 Z0.4 F2700 E45.34817 
G1 X12.1263 Y-1.9769 Z0.4 F2700 E45.35803 
G1 X12.2871 Y-0.1381 Z0.4 F2700 E45.41943 
G1 X12.2853 Y0.1582 Z0.4 F2700 E45.42928 
G1 X12.1245 Y1.9971 Z0.4 F2700 E45.49068 
G1 X12.0713 Y2.2889 Z0.4 F2700 E45.50054 
G1 X11.593 Y4.0737 Z0.4 F2700 E45.562 
G1 X11.4909 Y4.3493 Z0.4 F2700 E45.57177 
G1 X10.7095 Y6.0248 Z0.4 F2700 E45.63326 
G1 X10.5605 Y6.2794 Z0.4 F2700 E45.64308 
G1 X9.5011 Y7.7923 Z0.4 F2700 E45.70451 
G1 X9.3095 Y8.0181 Z0.4 F2700 E45.71435 
G1 X8.0036 Y9.3239 Z0.4 F2700 E45.77578 
G1 X7.776 Y9.5127 Z0.4 F2700 E45.78561 
G1 X7.776 Y9.5127 Z0.4 F1500 E44.48561 ;Retract
G1 X7.776 Y9.5127 Z0.4 F3000 ;Retract 2?
G1 X-8.83289 Y7.49915 Z0.4 F9000 ;Travel
G1 X-8.83289 Y7.49915 Z0.4 F1500 E45.78561 ;End Retract
G1 X-7.50633 Y8.82571 Z0.4 F5400 E45.84801 
G1 X-7.3646 Y8.9461 Z0.4 F5400 E45.8542 
G1 X-5.9004 Y9.9712 Z0.4 F5400 E45.91364 
G1 X-5.64428 Y10.11471 Z0.4 F5400 E45.92341 
G1 X-10.11478 Y5.64421 Z0.4 F5400 E46.13369 
G1 X-10.6154 Y4.57054 Z0.4 F5400 E46.17309 
G1 X-4.5705 Y10.61544 Z0.4 F5400 E46.45742 
G1 X-3.6242 Y10.98869 Z0.4 F5400 E46.49126 
G1 X-10.98862 Y3.62426 Z0.4 F5400 E46.83766 
G1 X-11.19845 Y2.84138 Z0.4 F5400 E46.86461 
G1 X-2.84139 Y11.19844 Z0.4 F5400 E47.25771 
G1 X-2.06648 Y11.40029 Z0.4 F5400 E47.28434 
G1 X-11.40121 Y2.06556 Z0.4 F5400 E47.72342 
G1 X-11.47224 Y1.42147 Z0.4 F5400 E47.74497 
G1 X-1.42157 Y11.47215 Z0.4 F5400 E48.21772 
G1 X-0.79356 Y11.52711 Z0.4 F5400 E48.23869 
G1 X-11.52712 Y0.79354 Z0.4 F5400 E48.74356 
G1 X-11.582 Y0.16561 Z0.4 F5400 E48.76453 
G1 X-0.16555 Y11.58206 Z0.4 F5400 E49.30152 
G1 X0.38796 Y11.56251 Z0.4 F5400 E49.31994 
G1 X-11.56251 Y-0.38796 Z0.4 F5400 E49.88206 
G1 X-11.51641 Y-0.91491 Z0.4 F5400 E49.89965 
G1 X0.91491 Y11.51641 Z0.4 F5400 E50.48438 
G1 X1.44186 Y11.4703 Z0.4 F5400 E50.50197 
G1 X-11.47032 Y-1.44187 Z0.4 F5400 E51.10932 
G1 X-11.41906 Y-1.96367 Z0.4 F5400 E51.12676 
G1 X1.96319 Y11.41858 Z0.4 F5400 E51.75622 
G1 X2.42717 Y11.30951 Z0.4 F5400 E51.77208 
G1 X-11.30941 Y-2.42707 Z0.4 F5400 E52.4182 
G1 X-11.18836 Y-2.87908 Z0.4 F5400 E52.43377 
G1 X2.87908 Y11.18837 Z0.4 F5400 E53.09545 
G1 X3.331 Y11.06723 Z0.4 F5400 E53.11102 
G1 X-11.06731 Y-3.33108 Z0.4 F5400 E53.78827 
G1 X-10.94627 Y-3.78309 Z0.4 F5400 E53.80383 
G1 X3.78291 Y10.94609 Z0.4 F5400 E54.49665 
G1 X4.1986 Y10.78872 Z0.4 F5400 E54.51143 
G1 X-10.78871 Y-4.19859 Z0.4 F5400 E55.21639 
G1 X-10.60649 Y-4.58943 Z0.4 F5400 E55.23073 
G1 X4.58943 Y10.60649 Z0.4 F5400 E55.9455 
G1 X4.98025 Y10.42427 Z0.4 F5400 E55.95984 
G1 X-10.42428 Y-4.98026 Z0.4 F5400 E56.68442 
G1 X-10.24206 Y-5.3711 Z0.4 F5400 E56.69877 
G1 X5.37108 Y10.24204 Z0.4 F5400 E57.43316 
G1 X5.7567 Y10.0546 Z0.4 F5400 E57.44742 
G1 X-10.05515 Y-5.75724 Z0.4 F5400 E58.19116 
G1 X-9.82884 Y-6.10399 Z0.4 F5400 E58.20493 
G1 X6.1039 Y9.82875 Z0.4 F5400 E58.95436 
G1 X6.44099 Y9.59278 Z0.4 F5400 E58.96805 
G1 X-9.59283 Y-6.44103 Z0.4 F5400 E59.72223 
G1 X-9.35681 Y-6.77807 Z0.4 F5400 E59.73591 
G1 X6.77807 Y9.35682 Z0.4 F5400 E60.49485 
G1 X7.11516 Y9.12085 Z0.4 F5400 E60.50854 
G1 X-9.12079 Y-7.1151 Z0.4 F5400 E61.27222 
G1 X-8.87775 Y-7.44511 Z0.4 F5400 E61.28586 
G1 X7.44503 Y8.87766 Z0.4 F5400 E62.05363 
G1 X7.73901 Y8.59859 Z0.4 F5400 E62.06711 
G1 X-8.59864 Y-7.73906 Z0.4 F5400 E62.83558 
G1 X-8.31211 Y-8.02559 Z0.4 F5400 E62.84906 
G1 X8.02554 Y8.31206 Z0.4 F5400 E63.61753 
G1 X8.31206 Y8.02554 Z0.4 F5400 E63.63101 
G1 X-8.02559 Y-8.31211 Z0.4 F5400 E64.39948 
G1 X-7.73906 Y-8.59864 Z0.4 F5400 E64.41296 
G1 X8.59859 Y7.73901 Z0.4 F5400 E65.18144 
G1 X8.87766 Y7.44503 Z0.4 F5400 E65.19492 
G1 X-7.4451 Y-8.87774 Z0.4 F5400 E65.96269 
G1 X-7.11514 Y-9.12083 Z0.4 F5400 E65.97632 
G1 X9.12075 Y7.11506 Z0.4 F5400 E66.74001 
G1 X9.35677 Y6.77803 Z0.4 F5400 E66.75369 
G1 X-6.77807 Y-9.35682 Z0.4 F5400 E67.51263 
G1 X-6.44101 Y-9.59281 Z0.4 F5400 E67.52631 
G1 X9.59279 Y6.44099 Z0.4 F5400 E68.28049 
G1 X9.82881 Y6.10396 Z0.4 F5400 E68.29418 
G1 X-6.10395 Y-9.8288 Z0.4 F5400 E69.04361 
G1 X-5.75678 Y-10.05468 Z0.4 F5400 E69.05738 
G1 X10.05513 Y5.75722 Z0.4 F5400 E69.80112 
G1 X10.24206 Y5.3711 Z0.4 F5400 E69.81539 
G1 X-5.37105 Y-10.24201 Z0.4 F5400 E70.54979 
G1 X-4.98021 Y-10.42423 Z0.4 F5400 E70.56413 
G1 X10.42431 Y4.9803 Z0.4 F5400 E71.28871 
G1 X10.60657 Y4.5895 Z0.4 F5400 E71.30305 
G1 X-4.58938 Y-10.60644 Z0.4 F5400 E72.01782 
G1 X-4.19854 Y-10.78866 Z0.4 F5400 E72.03217 
G1 X10.78882 Y4.1987 Z0.4 F5400 E72.73713 
G1 X10.94616 Y3.78298 Z0.4 F5400 E72.75191 
G1 X-3.78288 Y-10.94606 Z0.4 F5400 E73.44472 
G1 X-3.33095 Y-11.06718 Z0.4 F5400 E73.46028 
G1 X11.06726 Y3.33103 Z0.4 F5400 E74.13753 
G1 X11.18836 Y2.87908 Z0.4 F5400 E74.15309 
G1 X-2.87903 Y-11.18831 Z0.4 F5400 E74.81478 
G1 X-2.4271 Y-11.30944 Z0.4 F5400 E74.83034 
G1 X11.30946 Y2.42712 Z0.4 F5400 E75.47646 
G1 X11.41906 Y1.96367 Z0.4 F5400 E75.4923 
G1 X-1.96322 Y-11.41861 Z0.4 F5400 E76.12177 
G1 X-1.44196 Y-11.47041 Z0.4 F5400 E76.13919 
G1 X11.47034 Y1.4419 Z0.4 F5400 E76.74654 
G1 X11.51643 Y0.91493 Z0.4 F5400 E76.76414 
G1 X-0.91498 Y-11.51648 Z0.4 F5400 E77.34887 
G1 X-0.38799 Y-11.56255 Z0.4 F5400 E77.36647 
G1 X11.56253 Y0.38797 Z0.4 F5400 E77.92858 
G1 X11.582 Y-0.16561 Z0.4 F5400 E77.94701 
G1 X0.16564 Y-11.58197 Z0.4 F5400 E78.484 
G1 X0.79364 Y-11.52703 Z0.4 F5400 E78.50496 
G1 X11.52711 Y-0.79355 Z0.4 F5400 E79.00983 
G1 X11.47222 Y-1.4215 Z0.4 F5400 E79.0308 
G1 X1.42164 Y-11.47208 Z0.4 F5400 E79.50355 
G1 X2.06657 Y-11.40021 Z0.4 F5400 E79.52513 
G1 X11.40118 Y-2.06559 Z0.4 F5400 E79.9642 
G1 X11.19849 Y-2.84134 Z0.4 F5400 E79.99087 
G1 X2.84152 Y-11.1983 Z0.4 F5400 E80.38396 
G1 X3.62428 Y-10.98861 Z0.4 F5400 E80.41091 
G1 X10.98872 Y-3.62416 Z0.4 F5400 E80.75731 
G1 X10.61549 Y-4.57044 Z0.4 F5400 E80.79114 
G1 X4.57052 Y-10.61542 Z0.4 F5400 E81.07548 
G1 X5.64437 Y-10.11462 Z0.4 F5400 E81.11489 
G1 X10.11457 Y-5.64442 Z0.4 F5400 E81.32515 
G1 X9.9804 Y-5.8874 Z0.4 F5400 E81.33438 
G1 X8.9552 Y-7.3517 Z0.4 F5400 E81.39384 
G1 X8.83299 Y-7.49905 Z0.4 F5400 E81.4002 
G1 X7.50612 Y-8.82592 Z0.4 F5400 E81.46262 
;layer 2 - 0.4mm
G1 X7.50612 Y-8.82592 Z0.4 F1500 E80.16262 ;Retract
G1 X7.50612 Y-8.82592 Z0.4 F3000 ;Retract 2?
G1 X7.50612 Y-8.82592 Z0.6 F1380 ;Plane Change
G1 X7.8262 Y-8.9357 Z0.6 F9000 ;Travel
G1 X7.8262 Y-8.9357 Z0.6 F1500 E81.46262 ;End Retract
G1 X8.9582 Y-7.8037 Z0.6 F2700 E81.51586 
G1 X9.2588 Y-7.4411 Z0.6 F2700 E81.53153 
G1 X10.1775 Y-6.1289 Z0.6 F2700 E81.5848 
G1 X10.4103 Y-5.7201 Z0.6 F2700 E81.60045 
G1 X11.0875 Y-4.2678 Z0.6 F2700 E81.65375 
G1 X11.245 Y-3.8271 Z0.6 F2700 E81.66931 
G1 X11.6603 Y-2.2773 Z0.6 F2700 E81.72268 
G1 X11.7389 Y-1.8154 Z0.6 F2700 E81.73826 
G1 X11.8785 Y-0.2187 Z0.6 F2700 E81.79157 
G1 X11.8757 Y0.2506 Z0.6 F2700 E81.80718 
G1 X11.736 Y1.8478 Z0.6 F2700 E81.86051 
G1 X11.6521 Y2.3075 Z0.6 F2700 E81.87605 
G1 X11.2367 Y3.8578 Z0.6 F2700 E81.92943 
G1 X11.0742 Y4.2966 Z0.6 F2700 E81.945 
G1 X10.3962 Y5.7503 Z0.6 F2700 E81.99835 
G1 X10.1594 Y6.1547 Z0.6 F2700 E82.01393 
G1 X9.24 Y7.468 Z0.6 F2700 E82.06725 
G1 X8.9364 Y7.8254 Z0.6 F2700 E82.08285 
G1 X7.8028 Y8.9591 Z0.6 F2700 E82.13617 
G1 X7.4419 Y9.2583 Z0.6 F2700 E82.15177 
G1 X6.1288 Y10.1777 Z0.6 F2700 E82.20508 
G1 X5.7209 Y10.4099 Z0.6 F2700 E82.22069 
G1 X4.2681 Y11.0873 Z0.6 F2700 E82.27401 
G1 X3.8272 Y11.2449 Z0.6 F2700 E82.28958 
G1 X2.2777 Y11.6601 Z0.6 F2700 E82.34293 
G1 X1.8152 Y11.7389 Z0.6 F2700 E82.35854 
G1 X0.2188 Y11.8785 Z0.6 F2700 E82.41184 
G1 X-0.2504 Y11.8757 Z0.6 F2700 E82.42744 
G1 X-1.8468 Y11.7361 Z0.6 F2700 E82.48074 
G1 X-2.3083 Y11.6519 Z0.6 F2700 E82.49635 
G1 X-3.858 Y11.2366 Z0.6 F2700 E82.54971 
G1 X-4.2965 Y11.0742 Z0.6 F2700 E82.56526 
G1 X-5.7496 Y10.3966 Z0.6 F2700 E82.61859 
G1 X-6.1545 Y10.1596 Z0.6 F2700 E82.63419 
G1 X-7.4678 Y9.2401 Z0.6 F2700 E82.68751 
G1 X-7.8252 Y8.9365 Z0.6 F2700 E82.70311 
G1 X-8.9584 Y7.8034 Z0.6 F2700 E82.75641 
G1 X-9.2586 Y7.4413 Z0.6 F2700 E82.77206 
G1 X-10.1776 Y6.1288 Z0.6 F2700 E82.82535 
G1 X-10.4097 Y5.7212 Z0.6 F2700 E82.84095 
G1 X-11.0876 Y4.2676 Z0.6 F2700 E82.89429 
G1 X-11.245 Y3.8271 Z0.6 F2700 E82.90985 
G1 X-11.6603 Y2.2773 Z0.6 F2700 E82.96322 
G1 X-11.7389 Y1.8154 Z0.6 F2700 E82.9788 
G1 X-11.8785 Y0.2186 Z0.6 F2700 E83.03211 
G1 X-11.8757 Y-0.2508 Z0.6 F2700 E83.04773 
G1 X-11.736 Y-1.8478 Z0.6 F2700 E83.10104 
G1 X-11.652 Y-2.3079 Z0.6 F2700 E83.1166 
G1 X-11.2366 Y-3.8581 Z0.6 F2700 E83.16998 
G1 X-11.0741 Y-4.2968 Z0.6 F2700 E83.18554 
G1 X-10.3961 Y-5.7505 Z0.6 F2700 E83.23889 
G1 X-10.1593 Y-6.1549 Z0.6 F2700 E83.25448 
G1 X-9.2398 Y-7.4682 Z0.6 F2700 E83.3078 
G1 X-8.9357 Y-7.8262 Z0.6 F2700 E83.32342 
G1 X-7.8031 Y-8.9588 Z0.6 F2700 E83.3767 
G1 X-7.4417 Y-9.2584 Z0.6 F2700 E83.39231 
G1 X-6.128 Y-10.1782 Z0.6 F2700 E83.44565 
G1 X-5.7216 Y-10.4096 Z0.6 F2700 E83.4612 
G1 X-4.2674 Y-11.0878 Z0.6 F2700 E83.51457 
G1 X-3.8271 Y-11.2449 Z0.6 F2700 E83.53012 
G1 X-2.2769 Y-11.6603 Z0.6 F2700 E83.5835 
G1 X-1.8152 Y-11.7389 Z0.6 F2700 E83.59908 
G1 X-0.2184 Y-11.8785 Z0.6 F2700 E83.65239 
G1 X0.2509 Y-11.8757 Z0.6 F2700 E83.668 
G1 X1.8479 Y-11.736 Z0.6 F2700 E83.72132 
G1 X2.3079 Y-11.652 Z0.6 F2700 E83.73687 
G1 X3.8588 Y-11.2365 Z0.6 F2700 E83.79027 
G1 X4.2966 Y-11.0741 Z0.6 F2700 E83.8058 
G1 X5.7498 Y-10.3965 Z0.6 F2700 E83.85913 
G1 X6.1554 Y-10.1591 Z0.6 F2700 E83.87476 
G1 X7.4682 Y-9.2398 Z0.6 F2700 E83.92807 
G1 X7.8262 Y-8.9357 Z0.6 F2700 E83.94369 
G1 X8.097 Y-9.2305 Z0.6 F9000 ;Travel
G1 X9.2551 Y-8.0724 Z0.6 F2700 E83.99817 
G1 X9.5769 Y-7.6842 Z0.6 F2700 E84.01494 
G1 X10.516 Y-6.3429 Z0.6 F2700 E84.0694 
G1 X10.7655 Y-5.9048 Z0.6 F2700 E84.08616 
G1 X11.4582 Y-4.4193 Z0.6 F2700 E84.14068 
G1 X11.6272 Y-3.9464 Z0.6 F2700 E84.15738 
G1 X12.0514 Y-2.3633 Z0.6 F2700 E84.21189 
G1 X12.136 Y-1.8659 Z0.6 F2700 E84.22868 
G1 X12.2786 Y-0.2351 Z0.6 F2700 E84.28312 
G1 X12.2756 Y0.2695 Z0.6 F2700 E84.29991 
G1 X12.1329 Y1.901 Z0.6 F2700 E84.35438 
G1 X12.0426 Y2.3956 Z0.6 F2700 E84.3711 
G1 X11.6183 Y3.9794 Z0.6 F2700 E84.42564 
G1 X11.4437 Y4.4506 Z0.6 F2700 E84.44235 
G1 X10.7508 Y5.9364 Z0.6 F2700 E84.49688 
G1 X10.4964 Y6.3709 Z0.6 F2700 E84.51362 
G1 X9.5571 Y7.7125 Z0.6 F2700 E84.56809 
G1 X9.2306 Y8.0969 Z0.6 F2700 E84.58487 
G1 X8.0727 Y9.2549 Z0.6 F2700 E84.63933 
G1 X7.6843 Y9.5769 Z0.6 F2700 E84.65612 
G1 X6.3432 Y10.5159 Z0.6 F2700 E84.71057 
G1 X5.905 Y10.7654 Z0.6 F2700 E84.72734 
G1 X4.4196 Y11.458 Z0.6 F2700 E84.78185 
G1 X3.9465 Y11.6271 Z0.6 F2700 E84.79856 
G1 X2.3636 Y12.0512 Z0.6 F2700 E84.85306 
G1 X1.8658 Y12.136 Z0.6 F2700 E84.86986 
G1 X0.2353 Y12.2786 Z0.6 F2700 E84.9243 
G1 X-0.2693 Y12.2756 Z0.6 F2700 E84.94108 
G1 X-1.8997 Y12.133 Z0.6 F2700 E84.99552 
G1 X-2.3966 Y12.0424 Z0.6 F2700 E85.01231 
G1 X-3.9792 Y11.6183 Z0.6 F2700 E85.06681 
G1 X-4.4504 Y11.4438 Z0.6 F2700 E85.08352 
G1 X-5.9361 Y10.751 Z0.6 F2700 E85.13804 
G1 X-6.3707 Y10.4965 Z0.6 F2700 E85.1548 
G1 X-7.7123 Y9.5572 Z0.6 F2700 E85.20927 
G1 X-8.0967 Y9.2307 Z0.6 F2700 E85.22604 
G1 X-9.2542 Y8.0733 Z0.6 F2700 E85.28048 
G1 X-9.5772 Y7.6837 Z0.6 F2700 E85.29732 
G1 X-10.5158 Y6.3432 Z0.6 F2700 E85.35174 
G1 X-10.7654 Y5.9049 Z0.6 F2700 E85.36852 
G1 X-11.4581 Y4.4195 Z0.6 F2700 E85.42303 
G1 X-11.6272 Y3.9464 Z0.6 F2700 E85.43974 
G1 X-12.0514 Y2.3633 Z0.6 F2700 E85.49426 
G1 X-12.136 Y1.8658 Z0.6 F2700 E85.51104 
G1 X-12.2786 Y0.235 Z0.6 F2700 E85.56549 
G1 X-12.2756 Y-0.2696 Z0.6 F2700 E85.58227 
G1 X-12.1329 Y-1.9013 Z0.6 F2700 E85.63675 
G1 X-12.0426 Y-2.3958 Z0.6 F2700 E85.65347 
G1 X-11.6182 Y-3.9797 Z0.6 F2700 E85.70801 
G1 X-11.4436 Y-4.4508 Z0.6 F2700 E85.72472 
G1 X-10.7507 Y-5.9366 Z0.6 F2700 E85.77924 
G1 X-10.4963 Y-6.3711 Z0.6 F2700 E85.79599 
G1 X-9.5569 Y-7.7127 Z0.6 F2700 E85.85046 
G1 X-9.2305 Y-8.097 Z0.6 F2700 E85.86723 
G1 X-8.0724 Y-9.2551 Z0.6 F2700 E85.92171 
G1 X-7.6841 Y-9.577 Z0.6 F2700 E85.93848 
G1 X-6.3424 Y-10.5164 Z0.6 F2700 E85.99296 
G1 X-5.9052 Y-10.7653 Z0.6 F2700 E86.00969 
G1 X-4.4199 Y-11.458 Z0.6 F2700 E86.0642 
G1 X-3.9455 Y-11.6273 Z0.6 F2700 E86.08095 
G1 X-2.363 Y-12.0514 Z0.6 F2700 E86.13545 
G1 X-1.8657 Y-12.136 Z0.6 F2700 E86.15222 
G1 X-0.2348 Y-12.2786 Z0.6 F2700 E86.20667 
G1 X0.2697 Y-12.2756 Z0.6 F2700 E86.22346 
G1 X1.9014 Y-12.1329 Z0.6 F2700 E86.27793 
G1 X2.3958 Y-12.0426 Z0.6 F2700 E86.29465 
G1 X3.9798 Y-11.6182 Z0.6 F2700 E86.34919 
G1 X4.4508 Y-11.4435 Z0.6 F2700 E86.3659 
G1 X5.9363 Y-10.7509 Z0.6 F2700 E86.42041 
G1 X6.3716 Y-10.496 Z0.6 F2700 E86.43719 
G1 X7.7127 Y-9.5569 Z0.6 F2700 E86.49165 
G1 X8.097 Y-9.2305 Z0.6 F2700 E86.50841 
G1 X8.097 Y-9.2305 Z0.6 F1500 E85.20841 ;Retract
G1 X8.097 Y-9.2305 Z0.6 F3000 ;Retract 2?
G1 X-2.9812 Y-11.16093 Z0.6 F9000 ;Travel
G1 X-2.9812 Y-11.16093 Z0.6 F1500 E86.50841 ;End Retract
G1 X-11.16097 Y-2.98117 Z0.6 F5400 E86.89317 
G1 X-11.4383 Y-1.808 Z0.6 F5400 E86.93326 
G1 X-11.5758 Y-0.2366 Z0.6 F5400 E86.98573 
G1 X-11.57371 Y0.26 Z0.6 F5400 E87.00224 
G1 X0.26005 Y-11.57376 Z0.6 F5400 E87.55887 
G1 X1.8079 Y-11.4383 Z0.6 F5400 E87.61055 
G1 X2.74026 Y-11.22554 Z0.6 F5400 E87.64235 
G1 X-11.22558 Y2.7403 Z0.6 F5400 E88.29926 
G1 X-10.49195 Y4.83509 Z0.6 F5400 E88.37309 
G1 X4.83516 Y-10.49201 Z0.6 F5400 E89.09403 
G1 X6.63118 Y-9.4596 Z0.6 F5400 E89.16293 
G1 X-9.4596 Y6.63117 Z0.6 F5400 E89.91979 
G1 X-8.16872 Y8.16872 Z0.6 F5400 E89.98656 
G1 X8.16885 Y-8.16885 Z0.6 F5400 E90.75503 
G1 X9.45961 Y-6.63118 Z0.6 F5400 E90.8218 
G1 X-6.63114 Y9.45957 Z0.6 F5400 E91.57866 
G1 X-4.83519 Y10.49205 Z0.6 F5400 E91.64756 
G1 X10.49194 Y-4.83509 Z0.6 F5400 E92.36851 
G1 X11.22558 Y-2.7403 Z0.6 F5400 E92.44233 
G1 X-2.74024 Y11.22552 Z0.6 F5400 E93.09924 
G1 X-1.807 Y11.4384 Z0.6 F5400 E93.13107 
G1 X-0.26002 Y11.57373 Z0.6 F5400 E93.18272 
G1 X11.57372 Y-0.26001 Z0.6 F5400 E93.73935 
G1 X11.5758 Y0.2364 Z0.6 F5400 E93.75586 
G1 X11.4383 Y1.808 Z0.6 F5400 E93.80833 
G1 X11.16097 Y2.98116 Z0.6 F5400 E93.84842 
G1 X2.98117 Y11.16097 Z0.6 F5400 E94.23318 
;layer 3 - 0.6mm
G1 X2.98117 Y11.16097 Z0.6 F1500 E92.93318 ;Retract
G1 X2.98117 Y11.16097 Z0.6 F3000 ;Retract 2?
G1 X2.98117 Y11.16097 Z0.8 F1380 ;Plane Change
G1 X3.7193 Y11.2739 Z0.8 F9000 ;Travel
G1 X3.7193 Y11.2739 Z0.8 F1500 E94.23318 ;End Retract
G1 X2.3718 Y11.635 Z0.8 F2700 E94.27958 
G1 X1.7044 Y11.7486 Z0.8 F2700 E94.30209 
G1 X0.3161 Y11.87 Z0.8 F2700 E94.34844 
G1 X-0.3616 Y11.866 Z0.8 F2700 E94.37098 
G1 X-1.7495 Y11.7446 Z0.8 F2700 E94.41732 
G1 X-2.4162 Y11.623 Z0.8 F2700 E94.43986 
G1 X-3.7636 Y11.2619 Z0.8 F2700 E94.48626 
G1 X-4.3972 Y11.0272 Z0.8 F2700 E94.50873 
G1 X-5.6621 Y10.4373 Z0.8 F2700 E94.55515 
G1 X-6.2456 Y10.0959 Z0.8 F2700 E94.57764 
G1 X-7.3877 Y9.2962 Z0.8 F2700 E94.62401 
G1 X-7.905 Y8.8569 Z0.8 F2700 E94.64658 
G1 X-8.8889 Y7.873 Z0.8 F2700 E94.69286 
G1 X-9.3227 Y7.3498 Z0.8 F2700 E94.71547 
G1 X-10.1213 Y6.2091 Z0.8 F2700 E94.76178 
G1 X-10.4572 Y5.6193 Z0.8 F2700 E94.78436 
G1 X-11.0464 Y4.356 Z0.8 F2700 E94.83072 
G1 X-11.2739 Y3.7191 Z0.8 F2700 E94.85321 
G1 X-11.6349 Y2.3715 Z0.8 F2700 E94.89962 
G1 X-11.7487 Y1.7036 Z0.8 F2700 E94.92215 
G1 X-11.87 Y0.3159 Z0.8 F2700 E94.96848 
G1 X-11.8659 Y-0.3622 Z0.8 F2700 E94.99104 
G1 X-11.7445 Y-1.7507 Z0.8 F2700 E95.03739 
G1 X-11.623 Y-2.4159 Z0.8 F2700 E95.05988 
G1 X-11.2618 Y-3.764 Z0.8 F2700 E95.1063 
G1 X-11.0268 Y-4.3982 Z0.8 F2700 E95.1288 
G1 X-10.4372 Y-5.6622 Z0.8 F2700 E95.17519 
G1 X-10.0951 Y-6.2465 Z0.8 F2700 E95.19771 
G1 X-9.296 Y-7.3879 Z0.8 F2700 E95.24405 
G1 X-8.8567 Y-7.9051 Z0.8 F2700 E95.26662 
G1 X-7.8713 Y-8.8904 Z0.8 F2700 E95.31297 
G1 X-7.3501 Y-9.3225 Z0.8 F2700 E95.33549 
G1 X-6.2082 Y-10.122 Z0.8 F2700 E95.38185 
G1 X-5.6193 Y-10.4573 Z0.8 F2700 E95.40439 
G1 X-4.356 Y-11.0463 Z0.8 F2700 E95.45075 
G1 X-3.7189 Y-11.2739 Z0.8 F2700 E95.47325 
G1 X-2.3711 Y-11.635 Z0.8 F2700 E95.51966 
G1 X-1.7036 Y-11.7487 Z0.8 F2700 E95.54218 
G1 X-0.3156 Y-11.87 Z0.8 F2700 E95.58852 
G1 X0.3623 Y-11.8659 Z0.8 F2700 E95.61107 
G1 X1.7509 Y-11.7445 Z0.8 F2700 E95.65743 
G1 X2.416 Y-11.623 Z0.8 F2700 E95.67992 
G1 X3.7647 Y-11.2617 Z0.8 F2700 E95.72636 
G1 X4.398 Y-11.0268 Z0.8 F2700 E95.74882 
G1 X5.6619 Y-10.4374 Z0.8 F2700 E95.79521 
G1 X6.2465 Y-10.0951 Z0.8 F2700 E95.81774 
G1 X7.3879 Y-9.296 Z0.8 F2700 E95.86408 
G1 X7.9058 Y-8.8561 Z0.8 F2700 E95.88668 
G1 X8.8899 Y-7.872 Z0.8 F2700 E95.93297 
G1 X9.3225 Y-7.3502 Z0.8 F2700 E95.95551 
G1 X10.1219 Y-6.2083 Z0.8 F2700 E96.00187 
G1 X10.457 Y-5.6198 Z0.8 F2700 E96.0244 
G1 X11.0465 Y-4.3558 Z0.8 F2700 E96.07079 
G1 X11.2739 Y-3.7191 Z0.8 F2700 E96.09327 
G1 X11.6349 Y-2.3715 Z0.8 F2700 E96.13968 
G1 X11.7486 Y-1.7038 Z0.8 F2700 E96.1622 
G1 X11.87 Y-0.3158 Z0.8 F2700 E96.20854 
G1 X11.866 Y0.3619 Z0.8 F2700 E96.23109 
G1 X11.7446 Y1.7496 Z0.8 F2700 E96.27742 
G1 X11.6229 Y2.4167 Z0.8 F2700 E96.29997 
G1 X11.2619 Y3.7636 Z0.8 F2700 E96.34635 
G1 X11.0267 Y4.3984 Z0.8 F2700 E96.36887 
G1 X10.4377 Y5.6616 Z0.8 F2700 E96.41522 
G1 X10.0953 Y6.2463 Z0.8 F2700 E96.43776 
G1 X9.2964 Y7.3875 Z0.8 F2700 E96.48409 
G1 X8.8568 Y7.905 Z0.8 F2700 E96.50668 
G1 X7.8718 Y8.8901 Z0.8 F2700 E96.55301 
G1 X7.3504 Y9.3224 Z0.8 F2700 E96.57554 
G1 X6.2087 Y10.1217 Z0.8 F2700 E96.62189 
G1 X5.6196 Y10.4571 Z0.8 F2700 E96.64444 
G1 X4.3565 Y11.0461 Z0.8 F2700 E96.69079 
G1 X3.7193 Y11.2739 Z0.8 F2700 E96.7133 
G1 X3.8386 Y11.6561 Z0.8 F9000 ;Travel
G1 X2.4578 Y12.0261 Z0.8 F2700 E96.76085 
G1 X1.7548 Y12.1457 Z0.8 F2700 E96.78456 
G1 X0.3326 Y12.2701 Z0.8 F2700 E96.83205 
G1 X-0.3805 Y12.2659 Z0.8 F2700 E96.85576 
G1 X-1.8024 Y12.1415 Z0.8 F2700 E96.90324 
G1 X-2.5045 Y12.0135 Z0.8 F2700 E96.92697 
G1 X-3.8848 Y11.6436 Z0.8 F2700 E96.9745 
G1 X-4.5516 Y11.3966 Z0.8 F2700 E96.99815 
G1 X-5.8476 Y10.7921 Z0.8 F2700 E97.04572 
G1 X-6.4622 Y10.4325 Z0.8 F2700 E97.0694 
G1 X-7.6322 Y9.6133 Z0.8 F2700 E97.11691 
G1 X-8.1758 Y9.1517 Z0.8 F2700 E97.14063 
G1 X-9.1852 Y8.1423 Z0.8 F2700 E97.1881 
G1 X-9.6413 Y7.5922 Z0.8 F2700 E97.21187 
G1 X-10.4598 Y6.4231 Z0.8 F2700 E97.25934 
G1 X-10.8127 Y5.8035 Z0.8 F2700 E97.28305 
G1 X-11.4169 Y4.5079 Z0.8 F2700 E97.3306 
G1 X-11.6561 Y3.8384 Z0.8 F2700 E97.35425 
G1 X-12.026 Y2.4576 Z0.8 F2700 E97.40179 
G1 X-12.1458 Y1.7541 Z0.8 F2700 E97.42553 
G1 X-12.2701 Y0.3322 Z0.8 F2700 E97.473 
G1 X-12.2658 Y-0.381 Z0.8 F2700 E97.49672 
G1 X-12.1414 Y-1.8042 Z0.8 F2700 E97.54424 
G1 X-12.0136 Y-2.5038 Z0.8 F2700 E97.56789 
G1 X-11.6434 Y-3.8856 Z0.8 F2700 E97.61547 
G1 X-11.3963 Y-4.5522 Z0.8 F2700 E97.63912 
G1 X-10.7918 Y-5.8483 Z0.8 F2700 E97.68668 
G1 X-10.4321 Y-6.4627 Z0.8 F2700 E97.71036 
G1 X-9.6127 Y-7.633 Z0.8 F2700 E97.75788 
G1 X-9.1514 Y-8.1761 Z0.8 F2700 E97.78158 
G1 X-8.1412 Y-9.1862 Z0.8 F2700 E97.8291 
G1 X-7.5925 Y-9.6411 Z0.8 F2700 E97.8528 
G1 X-6.4226 Y-10.4602 Z0.8 F2700 E97.9003 
G1 X-5.8034 Y-10.8128 Z0.8 F2700 E97.924 
G1 X-4.5075 Y-11.417 Z0.8 F2700 E97.97156 
G1 X-3.8382 Y-11.6561 Z0.8 F2700 E97.9952 
G1 X-2.4572 Y-12.0261 Z0.8 F2700 E98.04275 
G1 X-1.7541 Y-12.1458 Z0.8 F2700 E98.06647 
G1 X-0.3319 Y-12.2701 Z0.8 F2700 E98.11395 
G1 X0.3811 Y-12.2658 Z0.8 F2700 E98.13767 
G1 X1.8044 Y-12.1414 Z0.8 F2700 E98.18519 
G1 X2.5039 Y-12.0136 Z0.8 F2700 E98.20884 
G1 X3.8857 Y-11.6434 Z0.8 F2700 E98.25642 
G1 X4.5522 Y-11.3962 Z0.8 F2700 E98.28006 
G1 X5.8484 Y-10.7918 Z0.8 F2700 E98.32763 
G1 X6.4627 Y-10.4321 Z0.8 F2700 E98.35131 
G1 X7.633 Y-9.6127 Z0.8 F2700 E98.39882 
G1 X8.1761 Y-9.1514 Z0.8 F2700 E98.42252 
G1 X9.1862 Y-8.1413 Z0.8 F2700 E98.47004 
G1 X9.6411 Y-7.5926 Z0.8 F2700 E98.49374 
G1 X10.4601 Y-6.4227 Z0.8 F2700 E98.54124 
G1 X10.8127 Y-5.8035 Z0.8 F2700 E98.56494 
G1 X11.417 Y-4.5077 Z0.8 F2700 E98.61249 
G1 X11.6561 Y-3.8384 Z0.8 F2700 E98.63613 
G1 X12.026 Y-2.4575 Z0.8 F2700 E98.68368 
G1 X12.1457 Y-1.7542 Z0.8 F2700 E98.70741 
G1 X12.2701 Y-0.3323 Z0.8 F2700 E98.75488 
G1 X12.2659 Y0.3808 Z0.8 F2700 E98.7786 
G1 X12.1415 Y1.8027 Z0.8 F2700 E98.82607 
G1 X12.0134 Y2.5048 Z0.8 F2700 E98.84981 
G1 X11.6435 Y3.8852 Z0.8 F2700 E98.89734 
G1 X11.3964 Y4.5519 Z0.8 F2700 E98.92099 
G1 X10.7921 Y5.848 Z0.8 F2700 E98.96856 
G1 X10.4323 Y6.4625 Z0.8 F2700 E98.99224 
G1 X9.6131 Y7.6326 Z0.8 F2700 E99.03975 
G1 X9.1516 Y8.1759 Z0.8 F2700 E99.06346 
G1 X8.1417 Y9.1859 Z0.8 F2700 E99.11096 
G1 X7.5928 Y9.641 Z0.8 F2700 E99.13468 
G1 X6.4231 Y10.4599 Z0.8 F2700 E99.18217 
G1 X5.8037 Y10.8126 Z0.8 F2700 E99.20588 
G1 X4.508 Y11.4168 Z0.8 F2700 E99.25343 
G1 X3.8386 Y11.6561 Z0.8 F2700 E99.27707 
G1 X3.8386 Y11.6561 Z0.8 F1500 E97.97707 ;Retract
G1 X3.8386 Y11.6561 Z0.8 F3000 ;Retract 2?
G1 X11.16092 Y-2.98122 Z0.8 F9000 ;Travel
G1 X11.16092 Y-2.98122 Z0.8 F1500 E99.27707 ;End Retract
G1 X2.98115 Y-11.16099 Z0.8 F5400 E99.66182 
G1 X-0.25591 Y-11.56962 Z0.8 F5400 E99.77034 
G1 X11.56665 Y0.25294 Z0.8 F5400 E100.32644 
G1 X11.4469 Y1.7099 Z0.8 F5400 E100.37506 
G1 X11.2255 Y2.74022 Z0.8 F5400 E100.41011 
G1 X-2.74021 Y-11.22549 Z0.8 F5400 E101.06702 
G1 X-4.83506 Y-10.49192 Z0.8 F5400 E101.14084 
G1 X10.49209 Y4.83524 Z0.8 F5400 E101.86178 
G1 X9.45958 Y6.63116 Z0.8 F5400 E101.93068 
G1 X-6.63119 Y-9.45961 Z0.8 F5400 E102.68754 
G1 X-8.16873 Y-8.16873 Z0.8 F5400 E102.75431 
G1 X8.1688 Y8.1688 Z0.8 F5400 E103.52278 
G1 X6.63123 Y9.45966 Z0.8 F5400 E103.58955 
G1 X-9.45954 Y-6.63111 Z0.8 F5400 E104.34642 
G1 X-10.49201 Y-4.83516 Z0.8 F5400 E104.41532 
G1 X4.83509 Y10.49194 Z0.8 F5400 E105.13626 
G1 X2.74034 Y11.22562 Z0.8 F5400 E105.21008 
G1 X-11.22546 Y-2.74018 Z0.8 F5400 E105.86699 
G1 X-11.4468 Y-1.7106 Z0.8 F5400 E105.90201 
G1 X-11.56657 Y-0.25286 Z0.8 F5400 E105.95066 
G1 X0.25591 Y11.56962 Z0.8 F5400 E106.50675 
G1 X-2.98117 Y11.16097 Z0.8 F5400 E106.61527 
G1 X-11.16095 Y2.98119 Z0.8 F5400 E107.00003 
;layer 4 - 0.8mm
G1 X-11.16095 Y2.98119 Z0.8 F1500 E105.70003 ;Retract
G1 X-11.16095 Y2.98119 Z0.8 F3000 ;Retract 2?
G1 X-11.16095 Y2.98119 Z1 F1380 ;Plane Change
G1 X-11.3028 Y3.6111 Z1 F9000 ;Travel
G1 X-11.3028 Y3.6111 Z1 F1500 E107.00003 ;End Retract
G1 X-11.6097 Y2.4656 Z1 F2700 E107.03947 
G1 X-11.7584 Y1.5922 Z1 F2700 E107.06894 
G1 X-11.8615 Y0.4128 Z1 F2700 E107.10831 
G1 X-11.8562 Y-0.4736 Z1 F2700 E107.13779 
G1 X-11.753 Y-1.6538 Z1 F2700 E107.1772 
G1 X-11.5941 Y-2.524 Z1 F2700 E107.20662 
G1 X-11.287 Y-3.6706 Z1 F2700 E107.2461 
G1 X-10.9796 Y-4.4993 Z1 F2700 E107.2755 
G1 X-10.4786 Y-5.5737 Z1 F2700 E107.31493 
G1 X-10.031 Y-6.3381 Z1 F2700 E107.34439 
G1 X-9.3515 Y-7.3086 Z1 F2700 E107.38379 
G1 X-8.7775 Y-7.9844 Z1 F2700 E107.41328 
G1 X-7.9408 Y-8.8211 Z1 F2700 E107.45264 
G1 X-7.2585 Y-9.3867 Z1 F2700 E107.48212 
G1 X-6.2876 Y-10.0665 Z1 F2700 E107.52154 
G1 X-5.5184 Y-10.5044 Z1 F2700 E107.55098 
G1 X-4.444 Y-11.0053 Z1 F2700 E107.5904 
G1 X-3.6115 Y-11.3026 Z1 F2700 E107.61981 
G1 X-2.4649 Y-11.61 Z1 F2700 E107.65929 
G1 X-1.5924 Y-11.7584 Z1 F2700 E107.68872 
G1 X-0.4126 Y-11.8615 Z1 F2700 E107.72811 
G1 X0.4738 Y-11.8562 Z1 F2700 E107.7576 
G1 X1.6539 Y-11.753 Z1 F2700 E107.797 
G1 X2.5236 Y-11.5942 Z1 F2700 E107.8264 
G1 X3.6703 Y-11.2869 Z1 F2700 E107.86589 
G1 X4.4996 Y-10.9795 Z1 F2700 E107.8953 
G1 X5.574 Y-10.4784 Z1 F2700 E107.93473 
G1 X6.3381 Y-10.031 Z1 F2700 E107.96418 
G1 X7.308 Y-9.3519 Z1 F2700 E108.00356 
G1 X7.9842 Y-8.7775 Z1 F2700 E108.03307 
G1 X8.8215 Y-7.9403 Z1 F2700 E108.07246 
G1 X9.3866 Y-7.2586 Z1 F2700 E108.10191 
G1 X10.0657 Y-6.2886 Z1 F2700 E108.14129 
G1 X10.5048 Y-5.5175 Z1 F2700 E108.1708 
G1 X11.0051 Y-4.4445 Z1 F2700 E108.21018 
G1 X11.3028 Y-3.6111 Z1 F2700 E108.23961 
G1 X11.6097 Y-2.4656 Z1 F2700 E108.27906 
G1 X11.7584 Y-1.5924 Z1 F2700 E108.30852 
G1 X11.8615 Y-0.413 Z1 F2700 E108.34789 
G1 X11.8562 Y0.4733 Z1 F2700 E108.37737 
G1 X11.7531 Y1.6524 Z1 F2700 E108.41674 
G1 X11.594 Y2.5246 Z1 F2700 E108.44623 
G1 X11.2872 Y3.6693 Z1 F2700 E108.48564 
G1 X10.9797 Y4.4992 Z1 F2700 E108.51508 
G1 X10.4787 Y5.5735 Z1 F2700 E108.55451 
G1 X10.0312 Y6.3378 Z1 F2700 E108.58396 
G1 X9.3519 Y7.3082 Z1 F2700 E108.62336 
G1 X8.7784 Y7.9834 Z1 F2700 E108.65283 
G1 X7.9408 Y8.8211 Z1 F2700 E108.69223 
G1 X7.2589 Y9.3865 Z1 F2700 E108.72169 
G1 X6.2891 Y10.0654 Z1 F2700 E108.76106 
G1 X5.5177 Y10.5047 Z1 F2700 E108.79059 
G1 X4.4449 Y11.0049 Z1 F2700 E108.82996 
G1 X3.6114 Y11.3028 Z1 F2700 E108.8594 
G1 X2.4661 Y11.6096 Z1 F2700 E108.89883 
G1 X1.5927 Y11.7583 Z1 F2700 E108.9283 
G1 X0.4134 Y11.8614 Z1 F2700 E108.96768 
G1 X-0.4731 Y11.8563 Z1 F2700 E108.99716 
G1 X-1.6519 Y11.7532 Z1 F2700 E109.03652 
G1 X-2.5242 Y11.5941 Z1 F2700 E109.06601 
G1 X-3.6689 Y11.2873 Z1 F2700 E109.10543 
G1 X-4.4988 Y10.9799 Z1 F2700 E109.13486 
G1 X-5.5731 Y10.4789 Z1 F2700 E109.17429 
G1 X-6.3375 Y10.0314 Z1 F2700 E109.20375 
G1 X-7.3077 Y9.3522 Z1 F2700 E109.24314 
G1 X-7.984 Y8.7779 Z1 F2700 E109.27265 
G1 X-8.8204 Y7.9415 Z1 F2700 E109.31199 
G1 X-9.3863 Y7.259 Z1 F2700 E109.34148 
G1 X-10.0654 Y6.289 Z1 F2700 E109.38086 
G1 X-10.5047 Y5.5177 Z1 F2700 E109.41038 
G1 X-11.0049 Y4.4448 Z1 F2700 E109.44976 
G1 X-11.3028 Y3.6111 Z1 F2700 E109.4792 
G1 X-11.685 Y3.7304 Z1 F9000 ;Travel
G1 X-12.0008 Y2.5517 Z1 F2700 E109.51979 
G1 X-12.1555 Y1.6427 Z1 F2700 E109.55046 
G1 X-12.2616 Y0.4292 Z1 F2700 E109.59097 
G1 X-12.2561 Y-0.4924 Z1 F2700 E109.62162 
G1 X-12.1499 Y-1.7072 Z1 F2700 E109.66218 
G1 X-11.9847 Y-2.6119 Z1 F2700 E109.69277 
G1 X-11.6687 Y-3.7916 Z1 F2700 E109.73339 
G1 X-11.349 Y-4.6535 Z1 F2700 E109.76397 
G1 X-10.833 Y-5.7601 Z1 F2700 E109.80458 
G1 X-10.368 Y-6.5543 Z1 F2700 E109.83519 
G1 X-9.6686 Y-7.5531 Z1 F2700 E109.87574 
G1 X-9.0723 Y-8.2552 Z1 F2700 E109.90638 
G1 X-8.2101 Y-9.1174 Z1 F2700 E109.94693 
G1 X-7.5009 Y-9.7053 Z1 F2700 E109.97757 
G1 X-6.502 Y-10.4047 Z1 F2700 E110.01813 
G1 X-5.7025 Y-10.8599 Z1 F2700 E110.04873 
G1 X-4.5958 Y-11.3758 Z1 F2700 E110.08934 
G1 X-3.7301 Y-11.685 Z1 F2700 E110.11992 
G1 X-2.5512 Y-12.001 Z1 F2700 E110.16051 
G1 X-1.6428 Y-12.1555 Z1 F2700 E110.19116 
G1 X-0.429 Y-12.2616 Z1 F2700 E110.23168 
G1 X0.4926 Y-12.2561 Z1 F2700 E110.26234 
G1 X1.7073 Y-12.1499 Z1 F2700 E110.30289 
G1 X2.6119 Y-11.9847 Z1 F2700 E110.33348 
G1 X3.7916 Y-11.6685 Z1 F2700 E110.3741 
G1 X4.6536 Y-11.349 Z1 F2700 E110.40468 
G1 X5.7601 Y-10.833 Z1 F2700 E110.44528 
G1 X6.5543 Y-10.368 Z1 F2700 E110.47589 
G1 X7.5531 Y-9.6686 Z1 F2700 E110.51645 
G1 X8.2551 Y-9.0723 Z1 F2700 E110.54708 
G1 X9.1173 Y-8.2102 Z1 F2700 E110.58764 
G1 X9.7052 Y-7.501 Z1 F2700 E110.61827 
G1 X10.4042 Y-6.5025 Z1 F2700 E110.65881 
G1 X10.86 Y-5.7022 Z1 F2700 E110.68945 
G1 X11.3758 Y-4.596 Z1 F2700 E110.73004 
G1 X11.685 Y-3.7304 Z1 F2700 E110.76061 
G1 X12.0008 Y-2.5517 Z1 F2700 E110.8012 
G1 X12.1555 Y-1.6429 Z1 F2700 E110.83186 
G1 X12.2616 Y-0.4294 Z1 F2700 E110.87238 
G1 X12.2561 Y0.4921 Z1 F2700 E110.90303 
G1 X12.15 Y1.7056 Z1 F2700 E110.94354 
G1 X11.9845 Y2.6127 Z1 F2700 E110.97421 
G1 X11.6688 Y3.7909 Z1 F2700 E111.01478 
G1 X11.3492 Y4.6532 Z1 F2700 E111.04537 
G1 X10.8333 Y5.7595 Z1 F2700 E111.08597 
G1 X10.3682 Y6.554 Z1 F2700 E111.11659 
G1 X9.669 Y7.5527 Z1 F2700 E111.15713 
G1 X9.0726 Y8.2549 Z1 F2700 E111.18778 
G1 X8.2107 Y9.1169 Z1 F2700 E111.22832 
G1 X7.5013 Y9.7051 Z1 F2700 E111.25897 
G1 X6.503 Y10.4039 Z1 F2700 E111.2995 
G1 X5.7024 Y10.8599 Z1 F2700 E111.33014 
G1 X4.5964 Y11.3756 Z1 F2700 E111.37073 
G1 X3.7307 Y11.685 Z1 F2700 E111.40131 
G1 X2.5521 Y12.0007 Z1 F2700 E111.44189 
G1 X1.6432 Y12.1554 Z1 F2700 E111.47256 
G1 X0.4298 Y12.2615 Z1 F2700 E111.51307 
G1 X-0.4918 Y12.2562 Z1 F2700 E111.54372 
G1 X-1.7051 Y12.1501 Z1 F2700 E111.58423 
G1 X-2.6123 Y11.9846 Z1 F2700 E111.6149 
G1 X-3.7905 Y11.6689 Z1 F2700 E111.65547 
G1 X-4.6528 Y11.3494 Z1 F2700 E111.68606 
G1 X-5.7591 Y10.8335 Z1 F2700 E111.72666 
G1 X-6.5537 Y10.3684 Z1 F2700 E111.75728 
G1 X-7.5522 Y9.6693 Z1 F2700 E111.79782 
G1 X-8.2548 Y9.0727 Z1 F2700 E111.82848 
G1 X-9.1167 Y8.2108 Z1 F2700 E111.86902 
G1 X-9.7049 Y7.5014 Z1 F2700 E111.89967 
G1 X-10.4039 Y6.503 Z1 F2700 E111.94021 
G1 X-10.8599 Y5.7024 Z1 F2700 E111.97085 
G1 X-11.3756 Y4.5963 Z1 F2700 E112.01144 
G1 X-11.685 Y3.7304 Z1 F2700 E112.04202 
G1 X-11.685 Y3.7304 Z1 F1500 E110.74202 ;Retract
G1 X-11.685 Y3.7304 Z1 F3000 ;Retract 2?
G1 X2.98116 Y11.16097 Z1 F9000 ;Travel
G1 X2.98116 Y11.16097 Z1 F1500 E112.04202 ;End Retract
G1 X11.16094 Y2.98119 Z1 F5400 E112.42678 
G1 X11.56049 Y-0.24678 Z1 F5400 E112.53496 
G1 X-0.24392 Y11.55763 Z1 F5400 E113.0902 
G1 X-2.74023 Y11.22551 Z1 F5400 E113.17396 
G1 X11.22551 Y-2.74023 Z1 F5400 E113.83087 
G1 X10.49195 Y-4.8351 Z1 F5400 E113.90469 
G1 X-4.83517 Y10.49203 Z1 F5400 E114.62563 
G1 X-6.63113 Y9.45955 Z1 F5400 E114.69453 
G1 X9.45962 Y-6.6312 Z1 F5400 E115.45139 
G1 X8.16872 Y-8.16872 Z1 F5400 E115.51816 
G1 X-8.16885 Y8.16885 Z1 F5400 E116.28663 
G1 X-9.4596 Y6.63118 Z1 F5400 E116.35341 
G1 X6.6311 Y-9.45953 Z1 F5400 E117.11026 
G1 X4.83514 Y-10.49199 Z1 F5400 E117.17917 
G1 X-10.49195 Y4.83509 Z1 F5400 E117.90011 
G1 X-11.22548 Y2.7402 Z1 F5400 E117.97393 
G1 X2.74026 Y-11.22554 Z1 F5400 E118.63084 
G1 X0.24387 Y-11.55758 Z1 F5400 E118.7146 
G1 X-11.56049 Y0.24678 Z1 F5400 E119.26984 
G1 X-11.16107 Y-2.98106 Z1 F5400 E119.37802 
G1 X-2.98121 Y-11.16092 Z1 F5400 E119.76277 
;layer 5 - 1mm
G1 X-2.98121 Y-11.16092 Z1 F1500 E118.46277 ;Retract
G1 X-2.98121 Y-11.16092 Z1 F3000 ;Retract 2?
G1 X-2.98121 Y-11.16092 Z1.2 F1380 ;Plane Change
G1 X-3.5031 Y-11.3317 Z1.2 F9000 ;Travel
G1 X-3.5031 Y-11.3317 Z1.2 F1500 E119.76277 ;End Retract
G1 X-2.559 Y-11.5848 Z1.2 F2700 E119.79528 
G1 X-1.4809 Y-11.7682 Z1.2 F2700 E119.83165 
G1 X-0.5097 Y-11.8531 Z1.2 F2700 E119.86408 
G1 X0.5852 Y-11.8464 Z1.2 F2700 E119.9005 
G1 X1.557 Y-11.7614 Z1.2 F2700 E119.93294 
G1 X2.6319 Y-11.5652 Z1.2 F2700 E119.96928 
G1 X3.5765 Y-11.3121 Z1.2 F2700 E120.00181 
G1 X4.6007 Y-10.9323 Z1.2 F2700 E120.03814 
G1 X5.485 Y-10.52 Z1.2 F2700 E120.07059 
G1 X6.4302 Y-9.9665 Z1.2 F2700 E120.10702 
G1 X7.2283 Y-9.4078 Z1.2 F2700 E120.13943 
G1 X8.0639 Y-8.698 Z1.2 F2700 E120.17589 
G1 X8.7515 Y-8.0104 Z1.2 F2700 E120.20823 
G1 X9.4512 Y-7.1663 Z1.2 F2700 E120.2447 
G1 X10.0101 Y-6.3679 Z1.2 F2700 E120.27712 
G1 X10.5515 Y-5.4172 Z1.2 F2700 E120.3135 
G1 X10.9641 Y-4.5324 Z1.2 F2700 E120.34598 
G1 X11.3318 Y-3.5031 Z1.2 F2700 E120.38233 
G1 X11.5846 Y-2.5598 Z1.2 F2700 E120.41481 
G1 X11.7681 Y-1.4814 Z1.2 F2700 E120.45119 
G1 X11.853 Y-0.5102 Z1.2 F2700 E120.48362 
G1 X11.8465 Y0.5846 Z1.2 F2700 E120.52003 
G1 X11.7616 Y1.5553 Z1.2 F2700 E120.55244 
G1 X11.5651 Y2.6325 Z1.2 F2700 E120.58886 
G1 X11.3124 Y3.5751 Z1.2 F2700 E120.62132 
G1 X10.9325 Y4.6004 Z1.2 F2700 E120.65769 
G1 X10.5199 Y5.4851 Z1.2 F2700 E120.69015 
G1 X9.9671 Y6.4294 Z1.2 F2700 E120.72655 
G1 X9.4079 Y7.2282 Z1.2 F2700 E120.75898 
G1 X8.6988 Y8.0631 Z1.2 F2700 E120.79541 
G1 X8.0108 Y8.7511 Z1.2 F2700 E120.82777 
G1 X7.1666 Y9.451 Z1.2 F2700 E120.86425 
G1 X6.3689 Y10.0095 Z1.2 F2700 E120.89663 
G1 X5.4166 Y10.5519 Z1.2 F2700 E120.93309 
G1 X4.5334 Y10.9636 Z1.2 F2700 E120.9655 
G1 X3.5032 Y11.3318 Z1.2 F2700 E121.00188 
G1 X2.5606 Y11.5843 Z1.2 F2700 E121.03434 
G1 X1.4814 Y11.7681 Z1.2 F2700 E121.07075 
G1 X0.5107 Y11.8529 Z1.2 F2700 E121.10316 
G1 X-0.5844 Y11.8465 Z1.2 F2700 E121.13958 
G1 X-1.5547 Y11.7617 Z1.2 F2700 E121.17198 
G1 X-2.6321 Y11.5652 Z1.2 F2700 E121.2084 
G1 X-3.5746 Y11.3126 Z1.2 F2700 E121.24086 
G1 X-4.6 Y10.9327 Z1.2 F2700 E121.27723 
G1 X-5.4851 Y10.5199 Z1.2 F2700 E121.30971 
G1 X-6.4286 Y9.9678 Z1.2 F2700 E121.34607 
G1 X-7.2271 Y9.4087 Z1.2 F2700 E121.37849 
G1 X-8.0636 Y8.6983 Z1.2 F2700 E121.41499 
G1 X-8.7513 Y8.0106 Z1.2 F2700 E121.44734 
G1 X-9.4504 Y7.1674 Z1.2 F2700 E121.48377 
G1 X-10.0094 Y6.369 Z1.2 F2700 E121.51619 
G1 X-10.5519 Y5.4164 Z1.2 F2700 E121.55265 
G1 X-10.9637 Y4.5332 Z1.2 F2700 E121.58506 
G1 X-11.3318 Y3.5032 Z1.2 F2700 E121.62144 
G1 X-11.5845 Y2.5599 Z1.2 F2700 E121.65392 
G1 X-11.7682 Y1.481 Z1.2 F2700 E121.69032 
G1 X-11.8531 Y0.51 Z1.2 F2700 E121.72274 
G1 X-11.8464 Y-0.585 Z1.2 F2700 E121.75916 
G1 X-11.7615 Y-1.5558 Z1.2 F2700 E121.79157 
G1 X-11.565 Y-2.6327 Z1.2 F2700 E121.82798 
G1 X-11.3122 Y-3.5761 Z1.2 F2700 E121.86047 
G1 X-10.9323 Y-4.6009 Z1.2 F2700 E121.89682 
G1 X-10.5198 Y-5.4852 Z1.2 F2700 E121.92927 
G1 X-9.9665 Y-6.4302 Z1.2 F2700 E121.96569 
G1 X-9.4073 Y-7.2291 Z1.2 F2700 E121.99813 
G1 X-8.6986 Y-8.0633 Z1.2 F2700 E122.03453 
G1 X-8.0103 Y-8.7516 Z1.2 F2700 E122.06691 
G1 X-7.1662 Y-9.4513 Z1.2 F2700 E122.10338 
G1 X-6.3674 Y-10.0106 Z1.2 F2700 E122.13581 
G1 X-5.417 Y-10.5516 Z1.2 F2700 E122.17218 
G1 X-4.5325 Y-10.964 Z1.2 F2700 E122.20464 
G1 X-3.5031 Y-11.3317 Z1.2 F2700 E122.241 
G1 X-3.6221 Y-11.714 Z1.2 F9000 ;Travel
G1 X-2.6453 Y-11.9758 Z1.2 F2700 E122.27463 
G1 X-1.5314 Y-12.1653 Z1.2 F2700 E122.31221 
G1 X-0.526 Y-12.2532 Z1.2 F2700 E122.34578 
G1 X0.604 Y-12.2463 Z1.2 F2700 E122.38337 
G1 X1.6103 Y-12.1583 Z1.2 F2700 E122.41696 
G1 X2.72 Y-11.9557 Z1.2 F2700 E122.45448 
G1 X3.6975 Y-11.6938 Z1.2 F2700 E122.48814 
G1 X4.7549 Y-11.3017 Z1.2 F2700 E122.52565 
G1 X5.6714 Y-10.8744 Z1.2 F2700 E122.55928 
G1 X6.6464 Y-10.3035 Z1.2 F2700 E122.59686 
G1 X7.4734 Y-9.7245 Z1.2 F2700 E122.63044 
G1 X8.3342 Y-8.9933 Z1.2 F2700 E122.66801 
G1 X9.0484 Y-8.2791 Z1.2 F2700 E122.7016 
G1 X9.7693 Y-7.4094 Z1.2 F2700 E122.73917 
G1 X10.3483 Y-6.5823 Z1.2 F2700 E122.77275 
G1 X10.9072 Y-5.6008 Z1.2 F2700 E122.81032 
G1 X11.3346 Y-4.6843 Z1.2 F2700 E122.84395 
G1 X11.714 Y-3.6224 Z1.2 F2700 E122.88146 
G1 X11.9757 Y-2.6458 Z1.2 F2700 E122.91509 
G1 X12.1652 Y-1.5319 Z1.2 F2700 E122.95267 
G1 X12.2531 Y-0.5266 Z1.2 F2700 E122.98623 
G1 X12.2464 Y0.6035 Z1.2 F2700 E123.02382 
G1 X12.1585 Y1.6084 Z1.2 F2700 E123.05737 
G1 X11.9556 Y2.7206 Z1.2 F2700 E123.09497 
G1 X11.694 Y3.6967 Z1.2 F2700 E123.12858 
G1 X11.302 Y4.7544 Z1.2 F2700 E123.1661 
G1 X10.8745 Y5.6711 Z1.2 F2700 E123.19974 
G1 X10.3041 Y6.6456 Z1.2 F2700 E123.2373 
G1 X9.725 Y7.4727 Z1.2 F2700 E123.27088 
G1 X8.9936 Y8.3339 Z1.2 F2700 E123.30846 
G1 X8.2801 Y9.0474 Z1.2 F2700 E123.34202 
G1 X7.409 Y9.7696 Z1.2 F2700 E123.37966 
G1 X6.5829 Y10.348 Z1.2 F2700 E123.4132 
G1 X5.6012 Y10.9071 Z1.2 F2700 E123.45077 
G1 X4.6849 Y11.3343 Z1.2 F2700 E123.4844 
G1 X3.6225 Y11.714 Z1.2 F2700 E123.52192 
G1 X2.6467 Y11.9754 Z1.2 F2700 E123.55552 
G1 X1.5319 Y12.1652 Z1.2 F2700 E123.59313 
G1 X0.5271 Y12.253 Z1.2 F2700 E123.62668 
G1 X-0.6031 Y12.2464 Z1.2 F2700 E123.66427 
G1 X-1.6079 Y12.1586 Z1.2 F2700 E123.69782 
G1 X-2.7202 Y11.9557 Z1.2 F2700 E123.73543 
G1 X-3.6962 Y11.6942 Z1.2 F2700 E123.76903 
G1 X-4.754 Y11.3022 Z1.2 F2700 E123.80655 
G1 X-5.6706 Y10.8747 Z1.2 F2700 E123.84019 
G1 X-6.6452 Y10.3044 Z1.2 F2700 E123.87775 
G1 X-7.4716 Y9.7258 Z1.2 F2700 E123.9113 
G1 X-8.3344 Y8.9931 Z1.2 F2700 E123.94895 
G1 X-9.0476 Y8.2799 Z1.2 F2700 E123.9825 
G1 X-9.769 Y7.4098 Z1.2 F2700 E124.02009 
G1 X-10.3479 Y6.583 Z1.2 F2700 E124.05366 
G1 X-10.9071 Y5.6011 Z1.2 F2700 E124.09124 
G1 X-11.3344 Y4.6847 Z1.2 F2700 E124.12487 
G1 X-11.714 Y3.6225 Z1.2 F2700 E124.16239 
G1 X-11.9756 Y2.6459 Z1.2 F2700 E124.19602 
G1 X-12.1653 Y1.5314 Z1.2 F2700 E124.23362 
G1 X-12.2532 Y0.5264 Z1.2 F2700 E124.26717 
G1 X-12.2463 Y-0.6038 Z1.2 F2700 E124.30476 
G1 X-12.1584 Y-1.609 Z1.2 F2700 E124.33833 
G1 X-11.9555 Y-2.7211 Z1.2 F2700 E124.37592 
G1 X-11.6938 Y-3.6975 Z1.2 F2700 E124.40955 
G1 X-11.3018 Y-4.7549 Z1.2 F2700 E124.44705 
G1 X-10.8744 Y-5.6713 Z1.2 F2700 E124.48069 
G1 X-10.3035 Y-6.6464 Z1.2 F2700 E124.51827 
G1 X-9.7245 Y-7.4735 Z1.2 F2700 E124.55185 
G1 X-8.9932 Y-8.3343 Z1.2 F2700 E124.58942 
G1 X-8.279 Y-9.0485 Z1.2 F2700 E124.62301 
G1 X-7.4093 Y-9.7694 Z1.2 F2700 E124.66058 
G1 X-6.5818 Y-10.3488 Z1.2 F2700 E124.69418 
G1 X-5.6011 Y-10.9071 Z1.2 F2700 E124.73171 
G1 X-4.684 Y-11.3347 Z1.2 F2700 E124.76537 
G1 X-3.6221 Y-11.714 Z1.2 F2700 E124.80287 
G1 X-3.6221 Y-11.714 Z1.2 F1500 E123.50287 ;Retract
G1 X-3.6221 Y-11.714 Z1.2 F3000 ;Retract 2?
G1 X-11.161 Y2.98114 Z1.2 F9000 ;Travel
G1 X-11.161 Y2.98114 Z1.2 F1500 E124.80287 ;End Retract
G1 X-2.9811 Y11.16104 Z1.2 F5400 E125.18763 
G1 X0.23758 Y11.55129 Z1.2 F5400 E125.29547 
G1 X-11.54854 Y-0.23484 Z1.2 F5400 E125.84985 
G1 X-11.22557 Y-2.74029 Z1.2 F5400 E125.93387 
G1 X2.74028 Y11.22556 Z1.2 F5400 E126.59078 
G1 X4.83512 Y10.49197 Z1.2 F5400 E126.66461 
G1 X-10.492 Y-4.83515 Z1.2 F5400 E127.38555 
G1 X-9.45956 Y-6.63114 Z1.2 F5400 E127.45445 
G1 X6.63119 Y9.45962 Z1.2 F5400 E128.21131 
G1 X8.16885 Y8.16885 Z1.2 F5400 E128.27808 
G1 X-8.16885 Y-8.16885 Z1.2 F5400 E129.04656 
G1 X-6.63122 Y-9.45965 Z1.2 F5400 E129.11333 
G1 X9.45961 Y6.63118 Z1.2 F5400 E129.87019 
G1 X10.49205 Y4.83519 Z1.2 F5400 E129.93909 
G1 X-4.83505 Y-10.49191 Z1.2 F5400 E130.66003 
G1 X-2.74029 Y-11.22557 Z1.2 F5400 E130.73386 
G1 X11.22554 Y2.74025 Z1.2 F5400 E131.39077 
G1 X11.54858 Y0.23487 Z1.2 F5400 E131.47479 
G1 X-0.23771 Y-11.55142 Z1.2 F5400 E132.02918 
G1 X2.9811 Y-11.16104 Z1.2 F5400 E132.13702 
G1 X11.16103 Y-2.98111 Z1.2 F5400 E132.52178 
;layer 6 - 1.2mm
G1 X11.16103 Y-2.98111 Z1.2 F1500 E131.22178 ;Retract
G1 X11.16103 Y-2.98111 Z1.2 F3000 ;Retract 2?
G1 X11.16103 Y-2.98111 Z1.4 F1380 ;Plane Change
G1 X11.3608 Y-3.3949 Z1.4 F9000 ;Travel
G1 X11.3608 Y-3.3949 Z1.4 F1500 E132.52178 ;End Retract
G1 X11.5592 Y-2.6543 Z1.4 F2700 E132.54728 
G1 X11.7779 Y-1.3697 Z1.4 F2700 E132.59062 
G1 X11.8445 Y-0.6074 Z1.4 F2700 E132.61607 
G1 X11.8367 Y0.696 Z1.4 F2700 E132.65942 
G1 X11.7701 Y1.458 Z1.4 F2700 E132.68486 
G1 X11.5361 Y2.7404 Z1.4 F2700 E132.72822 
G1 X11.3377 Y3.4809 Z1.4 F2700 E132.75372 
G1 X10.885 Y4.7022 Z1.4 F2700 E132.79704 
G1 X10.5613 Y5.3963 Z1.4 F2700 E132.82251 
G1 X9.903 Y6.521 Z1.4 F2700 E132.86586 
G1 X9.4639 Y7.1483 Z1.4 F2700 E132.89132 
G1 X8.6204 Y8.1415 Z1.4 F2700 E132.93466 
G1 X8.0792 Y8.6826 Z1.4 F2700 E132.96012 
G1 X7.0751 Y9.5151 Z1.4 F2700 E133.0035 
G1 X6.4489 Y9.9535 Z1.4 F2700 E133.02892 
G1 X5.3152 Y10.5991 Z1.4 F2700 E133.07232 
G1 X4.6218 Y10.9224 Z1.4 F2700 E133.09776 
G1 X3.3955 Y11.3606 Z1.4 F2700 E133.14108 
G1 X2.6546 Y11.5591 Z1.4 F2700 E133.16659 
G1 X1.3702 Y11.7778 Z1.4 F2700 E133.20992 
G1 X0.6079 Y11.8444 Z1.4 F2700 E133.23537 
G1 X-0.6956 Y11.8368 Z1.4 F2700 E133.27873 
G1 X-1.4574 Y11.7702 Z1.4 F2700 E133.30416 
G1 X-2.7396 Y11.5363 Z1.4 F2700 E133.34751 
G1 X-3.4805 Y11.3377 Z1.4 F2700 E133.37302 
G1 X-4.7017 Y10.8853 Z1.4 F2700 E133.41634 
G1 X-5.3957 Y10.5617 Z1.4 F2700 E133.44181 
G1 X-6.5205 Y9.9033 Z1.4 F2700 E133.48516 
G1 X-7.1478 Y9.4642 Z1.4 F2700 E133.51062 
G1 X-8.1411 Y8.6206 Z1.4 F2700 E133.55397 
G1 X-8.6828 Y8.079 Z1.4 F2700 E133.57945 
G1 X-9.5145 Y7.0759 Z1.4 F2700 E133.62279 
G1 X-9.9537 Y6.4485 Z1.4 F2700 E133.64826 
G1 X-10.5986 Y5.316 Z1.4 F2700 E133.6916 
G1 X-10.9227 Y4.6212 Z1.4 F2700 E133.7171 
G1 X-11.3608 Y3.3949 Z1.4 F2700 E133.76041 
G1 X-11.5592 Y2.6544 Z1.4 F2700 E133.78591 
G1 X-11.7779 Y1.3696 Z1.4 F2700 E133.82926 
G1 X-11.8446 Y0.6069 Z1.4 F2700 E133.85472 
G1 X-11.8367 Y-0.6963 Z1.4 F2700 E133.89807 
G1 X-11.77 Y-1.4587 Z1.4 F2700 E133.92352 
G1 X-11.536 Y-2.741 Z1.4 F2700 E133.96688 
G1 X-11.3375 Y-3.4818 Z1.4 F2700 E133.99239 
G1 X-10.8848 Y-4.7028 Z1.4 F2700 E134.0357 
G1 X-10.561 Y-5.3971 Z1.4 F2700 E134.06118 
G1 X-9.9026 Y-6.5217 Z1.4 F2700 E134.10452 
G1 X-9.4638 Y-7.1483 Z1.4 F2700 E134.12996 
G1 X-8.6188 Y-8.1431 Z1.4 F2700 E134.17338 
G1 X-8.0786 Y-8.6833 Z1.4 F2700 E134.19879 
G1 X-7.0754 Y-9.515 Z1.4 F2700 E134.24213 
G1 X-6.4476 Y-9.9544 Z1.4 F2700 E134.26762 
G1 X-5.3151 Y-10.5991 Z1.4 F2700 E134.31096 
G1 X-4.6208 Y-10.9228 Z1.4 F2700 E134.33644 
G1 X-3.3947 Y-11.3608 Z1.4 F2700 E134.37974 
G1 X-2.6534 Y-11.5595 Z1.4 F2700 E134.40527 
G1 X-1.3695 Y-11.7779 Z1.4 F2700 E134.44858 
G1 X-0.6066 Y-11.8446 Z1.4 F2700 E134.47405 
G1 X0.6965 Y-11.8367 Z1.4 F2700 E134.5174 
G1 X1.4599 Y-11.7699 Z1.4 F2700 E134.54288 
G1 X2.7401 Y-11.5361 Z1.4 F2700 E134.58617 
G1 X3.4819 Y-11.3374 Z1.4 F2700 E134.61171 
G1 X4.7023 Y-10.885 Z1.4 F2700 E134.655 
G1 X5.3969 Y-10.561 Z1.4 F2700 E134.68049 
G1 X6.5221 Y-9.9023 Z1.4 F2700 E134.72386 
G1 X7.1488 Y-9.4634 Z1.4 F2700 E134.74931 
G1 X8.1425 Y-8.6194 Z1.4 F2700 E134.79267 
G1 X8.6832 Y-8.0787 Z1.4 F2700 E134.8181 
G1 X9.5149 Y-7.0755 Z1.4 F2700 E134.86144 
G1 X9.9542 Y-6.4478 Z1.4 F2700 E134.88693 
G1 X10.599 Y-5.3154 Z1.4 F2700 E134.93027 
G1 X10.9227 Y-4.6212 Z1.4 F2700 E134.95574 
G1 X11.3608 Y-3.3949 Z1.4 F2700 E134.99906 
G1 X11.743 Y-3.5142 Z1.4 F9000 ;Travel
G1 X11.9503 Y-2.7404 Z1.4 F2700 E135.0257 
G1 X12.175 Y-1.4202 Z1.4 F2700 E135.07024 
G1 X12.2446 Y-0.6238 Z1.4 F2700 E135.09683 
G1 X12.2366 Y0.7148 Z1.4 F2700 E135.14135 
G1 X12.167 Y1.5112 Z1.4 F2700 E135.16794 
G1 X11.9266 Y2.8286 Z1.4 F2700 E135.21248 
G1 X11.7192 Y3.6025 Z1.4 F2700 E135.23913 
G1 X11.2547 Y4.8557 Z1.4 F2700 E135.28358 
G1 X10.9157 Y5.5827 Z1.4 F2700 E135.31026 
G1 X10.24 Y6.7371 Z1.4 F2700 E135.35475 
G1 X9.781 Y7.3928 Z1.4 F2700 E135.38137 
G1 X8.9146 Y8.413 Z1.4 F2700 E135.42589 
G1 X8.3491 Y8.9784 Z1.4 F2700 E135.45249 
G1 X7.3175 Y9.8337 Z1.4 F2700 E135.49706 
G1 X6.6628 Y10.292 Z1.4 F2700 E135.52364 
G1 X5.4999 Y10.9543 Z1.4 F2700 E135.56815 
G1 X4.7733 Y11.2931 Z1.4 F2700 E135.59481 
G1 X3.5148 Y11.7428 Z1.4 F2700 E135.63926 
G1 X2.7407 Y11.9502 Z1.4 F2700 E135.66592 
G1 X1.4207 Y12.1749 Z1.4 F2700 E135.71045 
G1 X0.6243 Y12.2445 Z1.4 F2700 E135.73704 
G1 X-0.7143 Y12.2367 Z1.4 F2700 E135.78157 
G1 X-1.5106 Y12.1671 Z1.4 F2700 E135.80815 
G1 X-2.828 Y11.9268 Z1.4 F2700 E135.85269 
G1 X-3.6018 Y11.7194 Z1.4 F2700 E135.87934 
G1 X-4.8552 Y11.255 Z1.4 F2700 E135.9238 
G1 X-5.5821 Y10.9161 Z1.4 F2700 E135.95047 
G1 X-6.7366 Y10.2403 Z1.4 F2700 E135.99496 
G1 X-7.3923 Y9.7813 Z1.4 F2700 E136.02159 
G1 X-8.4126 Y8.9148 Z1.4 F2700 E136.06611 
G1 X-8.9786 Y8.3489 Z1.4 F2700 E136.09273 
G1 X-9.8331 Y7.3183 Z1.4 F2700 E136.13726 
G1 X-10.2919 Y6.6629 Z1.4 F2700 E136.16386 
G1 X-10.9543 Y5.4997 Z1.4 F2700 E136.20839 
G1 X-11.2932 Y4.7731 Z1.4 F2700 E136.23505 
G1 X-11.743 Y3.5142 Z1.4 F2700 E136.27952 
G1 X-11.9503 Y2.7404 Z1.4 F2700 E136.30616 
G1 X-12.175 Y1.42 Z1.4 F2700 E136.35071 
G1 X-12.2447 Y0.6234 Z1.4 F2700 E136.3773 
G1 X-12.2366 Y-0.7152 Z1.4 F2700 E136.42183 
G1 X-12.1669 Y-1.5119 Z1.4 F2700 E136.44843 
G1 X-11.9265 Y-2.8291 Z1.4 F2700 E136.49296 
G1 X-11.719 Y-3.6034 Z1.4 F2700 E136.51962 
G1 X-11.2545 Y-4.8563 Z1.4 F2700 E136.56407 
G1 X-10.9154 Y-5.5835 Z1.4 F2700 E136.59075 
G1 X-10.2397 Y-6.7376 Z1.4 F2700 E136.63523 
G1 X-9.7803 Y-7.3936 Z1.4 F2700 E136.66187 
G1 X-8.9141 Y-8.4134 Z1.4 F2700 E136.70637 
G1 X-8.3479 Y-8.9796 Z1.4 F2700 E136.73301 
G1 X-7.3177 Y-9.8336 Z1.4 F2700 E136.77751 
G1 X-6.6619 Y-10.2926 Z1.4 F2700 E136.80414 
G1 X-5.4992 Y-10.9546 Z1.4 F2700 E136.84864 
G1 X-4.7723 Y-11.2935 Z1.4 F2700 E136.87531 
G1 X-3.514 Y-11.743 Z1.4 F2700 E136.91975 
G1 X-2.7394 Y-11.9506 Z1.4 F2700 E136.94643 
G1 X-1.42 Y-12.175 Z1.4 F2700 E136.99094 
G1 X-0.623 Y-12.2447 Z1.4 F2700 E137.01755 
G1 X0.7154 Y-12.2366 Z1.4 F2700 E137.06207 
G1 X1.5133 Y-12.1668 Z1.4 F2700 E137.0887 
G1 X2.828 Y-11.9267 Z1.4 F2700 E137.13316 
G1 X3.6035 Y-11.7189 Z1.4 F2700 E137.15986 
G1 X4.8563 Y-11.2545 Z1.4 F2700 E137.2043 
G1 X5.583 Y-10.9156 Z1.4 F2700 E137.23097 
G1 X6.738 Y-10.2394 Z1.4 F2700 E137.27548 
G1 X7.3935 Y-9.7803 Z1.4 F2700 E137.3021 
G1 X8.4133 Y-8.9142 Z1.4 F2700 E137.3466 
G1 X8.9795 Y-8.348 Z1.4 F2700 E137.37323 
G1 X9.8335 Y-7.3178 Z1.4 F2700 E137.41774 
G1 X10.2924 Y-6.6622 Z1.4 F2700 E137.44436 
G1 X10.9545 Y-5.4995 Z1.4 F2700 E137.48886 
G1 X11.2934 Y-4.7727 Z1.4 F2700 E137.51553 
G1 X11.743 Y-3.5142 Z1.4 F2700 E137.55998 
G1 X11.743 Y-3.5142 Z1.4 F1500 E136.25998 ;Retract
G1 X11.743 Y-3.5142 Z1.4 F3000 ;Retract 2?
G1 X-2.98114 Y-11.16099 Z1.4 F9000 ;Travel
G1 X-2.98114 Y-11.16099 Z1.4 F1500 E137.55998 ;End Retract
G1 X-11.16104 Y-2.9811 Z1.4 F5400 E137.94474 
G1 X-11.54229 Y0.22858 Z1.4 F5400 E138.05224 
G1 X0.22584 Y-11.53955 Z1.4 F5400 E138.60578 
G1 X2.74015 Y-11.22544 Z1.4 F5400 E138.69005 
G1 X-11.22555 Y2.74027 Z1.4 F5400 E139.34696 
G1 X-10.49191 Y4.83506 Z1.4 F5400 E139.42078 
G1 X4.83515 Y-10.49201 Z1.4 F5400 E140.14172 
G1 X6.63121 Y-9.45964 Z1.4 F5400 E140.21062 
G1 X-9.45961 Y6.63118 Z1.4 F5400 E140.96748 
G1 X-8.16872 Y8.16872 Z1.4 F5400 E141.03426 
G1 X8.16885 Y-8.16885 Z1.4 F5400 E141.80273 
G1 X9.45969 Y-6.63126 Z1.4 F5400 E141.8695 
G1 X-6.6312 Y9.45963 Z1.4 F5400 E142.62636 
G1 X-4.83527 Y10.49212 Z1.4 F5400 E142.69526 
G1 X10.49194 Y-4.83508 Z1.4 F5400 E143.41621 
G1 X11.22553 Y-2.74025 Z1.4 F5400 E143.49003 
G1 X-2.74017 Y11.22545 Z1.4 F5400 E144.14694 
G1 X-0.22583 Y11.53954 Z1.4 F5400 E144.23121 
G1 X11.54222 Y-0.22851 Z1.4 F5400 E144.78475 
G1 X11.16097 Y2.98116 Z1.4 F5400 E144.89225 
G1 X2.98119 Y11.16094 Z1.4 F5400 E145.277 
;layer 7 - 1.4mm
G1 X2.98119 Y11.16094 Z1.4 F1500 E143.977 ;Retract
G1 X2.98119 Y11.16094 Z1.4 F3000 ;Retract 2?
G1 X2.98119 Y11.16094 Z1.6 F1380 ;Plane Change
G1 X3.2876 Y11.3895 Z1.6 F9000 ;Travel
G1 X3.2876 Y11.3895 Z1.6 F1500 E145.277 ;End Retract
G1 X2.7489 Y11.5338 Z1.6 F2700 E145.29555 
G1 X1.2589 Y11.7875 Z1.6 F2700 E145.34582 
G1 X0.7052 Y11.8359 Z1.6 F2700 E145.36431 
G1 X-0.8068 Y11.8271 Z1.6 F2700 E145.4146 
G1 X-1.3602 Y11.7787 Z1.6 F2700 E145.43308 
G1 X-2.8475 Y11.5074 Z1.6 F2700 E145.48336 
G1 X-3.3862 Y11.3631 Z1.6 F2700 E145.50191 
G1 X-4.8029 Y10.8381 Z1.6 F2700 E145.55216 
G1 X-5.3077 Y10.6027 Z1.6 F2700 E145.57069 
G1 X-6.6114 Y9.8397 Z1.6 F2700 E145.62093 
G1 X-7.0671 Y9.5207 Z1.6 F2700 E145.63943 
G1 X-8.2215 Y8.5404 Z1.6 F2700 E145.6898 
G1 X-8.6128 Y8.1491 Z1.6 F2700 E145.70821 
G1 X-9.579 Y6.9837 Z1.6 F2700 E145.75856 
G1 X-9.8974 Y6.5289 Z1.6 F2700 E145.77702 
G1 X-10.6461 Y5.2142 Z1.6 F2700 E145.82734 
G1 X-10.8815 Y4.7096 Z1.6 F2700 E145.84586 
G1 X-11.3896 Y3.2872 Z1.6 F2700 E145.8961 
G1 X-11.534 Y2.7482 Z1.6 F2700 E145.91466 
G1 X-11.7877 Y1.2581 Z1.6 F2700 E145.96493 
G1 X-11.8361 Y0.7042 Z1.6 F2700 E145.98342 
G1 X-11.8269 Y-0.8078 Z1.6 F2700 E146.03371 
G1 X-11.7785 Y-1.3617 Z1.6 F2700 E146.05221 
G1 X-11.5071 Y-2.849 Z1.6 F2700 E146.10249 
G1 X-11.3626 Y-3.3883 Z1.6 F2700 E146.12106 
G1 X-10.838 Y-4.8029 Z1.6 F2700 E146.17124 
G1 X-10.6019 Y-5.3091 Z1.6 F2700 E146.18982 
G1 X-9.8385 Y-6.613 Z1.6 F2700 E146.24007 
G1 X-9.5195 Y-7.0687 Z1.6 F2700 E146.25858 
G1 X-8.5397 Y-8.2221 Z1.6 F2700 E146.30891 
G1 X-8.1474 Y-8.6144 Z1.6 F2700 E146.32736 
G1 X-6.9836 Y-9.5792 Z1.6 F2700 E146.37764 
G1 X-6.5273 Y-9.8986 Z1.6 F2700 E146.39617 
G1 X-5.2138 Y-10.6464 Z1.6 F2700 E146.44644 
G1 X-4.7088 Y-10.8819 Z1.6 F2700 E146.46497 
G1 X-3.2874 Y-11.3895 Z1.6 F2700 E146.51517 
G1 X-2.7471 Y-11.5344 Z1.6 F2700 E146.53378 
G1 X-1.2582 Y-11.7877 Z1.6 F2700 E146.58401 
G1 X-0.7037 Y-11.8361 Z1.6 F2700 E146.60252 
G1 X0.808 Y-11.8269 Z1.6 F2700 E146.6528 
G1 X1.363 Y-11.7784 Z1.6 F2700 E146.67133 
G1 X2.8475 Y-11.5073 Z1.6 F2700 E146.72152 
G1 X3.388 Y-11.3625 Z1.6 F2700 E146.74014 
G1 X4.8037 Y-10.8377 Z1.6 F2700 E146.79035 
G1 X5.3092 Y-10.6019 Z1.6 F2700 E146.80891 
G1 X6.6133 Y-9.8384 Z1.6 F2700 E146.85917 
G1 X7.069 Y-9.5193 Z1.6 F2700 E146.87767 
G1 X8.2216 Y-8.5403 Z1.6 F2700 E146.92797 
G1 X8.6137 Y-8.1482 Z1.6 F2700 E146.94641 
G1 X9.5795 Y-6.9831 Z1.6 F2700 E146.99675 
G1 X9.898 Y-6.5281 Z1.6 F2700 E147.01522 
G1 X10.6466 Y-5.2136 Z1.6 F2700 E147.06553 
G1 X10.8815 Y-4.7096 Z1.6 F2700 E147.08403 
G1 X11.3896 Y-3.2872 Z1.6 F2700 E147.13426 
G1 X11.534 Y-2.7482 Z1.6 F2700 E147.15282 
G1 X11.7876 Y-1.2584 Z1.6 F2700 E147.20309 
G1 X11.836 Y-0.7045 Z1.6 F2700 E147.22158 
G1 X11.827 Y0.8073 Z1.6 F2700 E147.27186 
G1 X11.7786 Y1.3608 Z1.6 F2700 E147.29034 
G1 X11.5072 Y2.8484 Z1.6 F2700 E147.34064 
G1 X11.3629 Y3.3866 Z1.6 F2700 E147.35917 
G1 X10.8378 Y4.8035 Z1.6 F2700 E147.40943 
G1 X10.6026 Y5.3079 Z1.6 F2700 E147.42794 
G1 X9.8389 Y6.6125 Z1.6 F2700 E147.47822 
G1 X9.5198 Y7.0684 Z1.6 F2700 E147.49673 
G1 X8.5407 Y8.2212 Z1.6 F2700 E147.54703 
G1 X8.1483 Y8.6136 Z1.6 F2700 E147.56549 
G1 X6.9842 Y9.5788 Z1.6 F2700 E147.61578 
G1 X6.5284 Y9.8979 Z1.6 F2700 E147.63429 
G1 X5.2145 Y10.646 Z1.6 F2700 E147.68458 
G1 X4.7102 Y10.8811 Z1.6 F2700 E147.70308 
G1 X3.2876 Y11.3895 Z1.6 F2700 E147.75333 
G1 X3.4069 Y11.7717 Z1.6 F9000 ;Travel
G1 X2.8349 Y11.9249 Z1.6 F2700 E147.77303 
G1 X1.3094 Y12.1846 Z1.6 F2700 E147.82449 
G1 X0.7216 Y12.236 Z1.6 F2700 E147.84412 
G1 X-0.8256 Y12.227 Z1.6 F2700 E147.89558 
G1 X-1.4133 Y12.1756 Z1.6 F2700 E147.9152 
G1 X-2.9359 Y11.8979 Z1.6 F2700 E147.96668 
G1 X-3.5075 Y11.7447 Z1.6 F2700 E147.98636 
G1 X-4.9564 Y11.2078 Z1.6 F2700 E148.03775 
G1 X-5.4936 Y10.9573 Z1.6 F2700 E148.05747 
G1 X-6.8281 Y10.1763 Z1.6 F2700 E148.1089 
G1 X-7.3116 Y9.8378 Z1.6 F2700 E148.12853 
G1 X-8.4923 Y8.8352 Z1.6 F2700 E148.18005 
G1 X-8.9091 Y8.4184 Z1.6 F2700 E148.19965 
G1 X-9.8976 Y7.2261 Z1.6 F2700 E148.25116 
G1 X-10.2359 Y6.7429 Z1.6 F2700 E148.27078 
G1 X-11.0016 Y5.3984 Z1.6 F2700 E148.32224 
G1 X-11.252 Y4.8615 Z1.6 F2700 E148.34195 
G1 X-11.7718 Y3.4065 Z1.6 F2700 E148.39334 
G1 X-11.9251 Y2.8343 Z1.6 F2700 E148.41304 
G1 X-12.1848 Y1.3086 Z1.6 F2700 E148.46451 
G1 X-12.2362 Y0.7205 Z1.6 F2700 E148.48415 
G1 X-12.2268 Y-0.8266 Z1.6 F2700 E148.53561 
G1 X-12.1754 Y-1.4149 Z1.6 F2700 E148.55525 
G1 X-11.8976 Y-2.9371 Z1.6 F2700 E148.60671 
G1 X-11.7443 Y-3.5093 Z1.6 F2700 E148.62642 
G1 X-11.2072 Y-4.9576 Z1.6 F2700 E148.67779 
G1 X-10.9565 Y-5.4952 Z1.6 F2700 E148.69752 
G1 X-10.1755 Y-6.8292 Z1.6 F2700 E148.74894 
G1 X-9.8362 Y-7.3138 Z1.6 F2700 E148.76861 
G1 X-8.835 Y-8.4924 Z1.6 F2700 E148.82005 
G1 X-8.4167 Y-8.9107 Z1.6 F2700 E148.83972 
G1 X-7.226 Y-9.8978 Z1.6 F2700 E148.89116 
G1 X-6.7417 Y-10.2368 Z1.6 F2700 E148.91083 
G1 X-5.3979 Y-11.0019 Z1.6 F2700 E148.96226 
G1 X-4.8606 Y-11.2524 Z1.6 F2700 E148.98197 
G1 X-3.406 Y-11.7719 Z1.6 F2700 E149.03335 
G1 X-2.8334 Y-11.9254 Z1.6 F2700 E149.05307 
G1 X-1.3086 Y-12.1848 Z1.6 F2700 E149.10451 
G1 X-0.72 Y-12.2362 Z1.6 F2700 E149.12416 
G1 X0.8268 Y-12.2268 Z1.6 F2700 E149.17561 
G1 X1.4162 Y-12.1753 Z1.6 F2700 E149.19529 
G1 X2.936 Y-11.8978 Z1.6 F2700 E149.24667 
G1 X3.5094 Y-11.7441 Z1.6 F2700 E149.26642 
G1 X4.9577 Y-11.2072 Z1.6 F2700 E149.31779 
G1 X5.4953 Y-10.9565 Z1.6 F2700 E149.33752 
G1 X6.8292 Y-10.1755 Z1.6 F2700 E149.38893 
G1 X7.3137 Y-9.8362 Z1.6 F2700 E149.4086 
G1 X8.4924 Y-8.8351 Z1.6 F2700 E149.46004 
G1 X8.9106 Y-8.4169 Z1.6 F2700 E149.47971 
G1 X9.8976 Y-7.2262 Z1.6 F2700 E149.53115 
G1 X10.2365 Y-6.742 Z1.6 F2700 E149.55081 
G1 X11.0018 Y-5.3982 Z1.6 F2700 E149.60224 
G1 X11.2522 Y-4.8611 Z1.6 F2700 E149.62195 
G1 X11.7718 Y-3.4065 Z1.6 F2700 E149.67333 
G1 X11.9251 Y-2.8342 Z1.6 F2700 E149.69303 
G1 X12.1847 Y-1.3089 Z1.6 F2700 E149.74449 
G1 X12.2361 Y-0.7209 Z1.6 F2700 E149.76412 
G1 X12.2269 Y0.8261 Z1.6 F2700 E149.81558 
G1 X12.1755 Y1.414 Z1.6 F2700 E149.83521 
G1 X11.8977 Y2.9365 Z1.6 F2700 E149.88668 
G1 X11.7445 Y3.5082 Z1.6 F2700 E149.90637 
G1 X11.2075 Y4.957 Z1.6 F2700 E149.95776 
G1 X10.957 Y5.4943 Z1.6 F2700 E149.97747 
G1 X10.1759 Y6.8286 Z1.6 F2700 E150.0289 
G1 X9.8369 Y7.3129 Z1.6 F2700 E150.04856 
G1 X8.8355 Y8.492 Z1.6 F2700 E150.10001 
G1 X8.4176 Y8.9099 Z1.6 F2700 E150.11967 
G1 X7.2266 Y9.8974 Z1.6 F2700 E150.17113 
G1 X6.7428 Y10.2361 Z1.6 F2700 E150.19077 
G1 X5.3986 Y11.0015 Z1.6 F2700 E150.24222 
G1 X4.8617 Y11.2518 Z1.6 F2700 E150.26192 
G1 X3.4069 Y11.7717 Z1.6 F2700 E150.3133 
G1 X3.4069 Y11.7717 Z1.6 F1500 E149.0133 ;Retract
G1 X3.4069 Y11.7717 Z1.6 F3000 ;Retract 2?
G1 X11.16091 Y-2.98122 Z1.6 F9000 ;Travel
G1 X11.16091 Y-2.98122 Z1.6 F1500 E150.3133 ;End Retract
G1 X2.98134 Y-11.1608 Z1.6 F5400 E150.69805 
G1 X2.7816 Y-11.2143 Z1.6 F5400 E150.70492 
G1 X1.323 Y-11.4807 Z1.6 F5400 E150.75424 
G1 X-0.21943 Y-11.53314 Z1.6 F5400 E150.80557 
G1 X11.53051 Y0.21681 Z1.6 F5400 E151.35825 
G1 X11.4809 Y1.321 Z1.6 F5400 E151.39502 
G1 X11.22248 Y2.73719 Z1.6 F5400 E151.4429 
G1 X-2.74038 Y-11.22566 Z1.6 F5400 E152.09967 
G1 X-3.1975 Y-11.103 Z1.6 F5400 E152.11541 
G1 X-4.5946 Y-10.6041 Z1.6 F5400 E152.16475 
G1 X-4.83511 Y-10.49196 Z1.6 F5400 E152.17358 
G1 X10.4921 Y4.83525 Z1.6 F5400 E152.89452 
G1 X10.3369 Y5.168 Z1.6 F5400 E152.90673 
G1 X9.5862 Y6.4504 Z1.6 F5400 E152.95616 
G1 X9.45963 Y6.63121 Z1.6 F5400 E152.9635 
G1 X-6.63124 Y-9.45967 Z1.6 F5400 E153.72036 
G1 X-6.8019 Y-9.3402 Z1.6 F5400 E153.72729 
G1 X-7.9455 Y-8.3921 Z1.6 F5400 E153.7767 
G1 X-8.1688 Y-8.1688 Z1.6 F5400 E153.7872 
G1 X8.16885 Y8.16885 Z1.6 F5400 E154.55567 
G1 X7.9464 Y8.3913 Z1.6 F5400 E154.56614 
G1 X6.8025 Y9.3398 Z1.6 F5400 E154.61556 
G1 X6.63125 Y9.45968 Z1.6 F5400 E154.62252 
G1 X-9.45956 Y-6.63114 Z1.6 F5400 E155.37938 
G1 X-9.5858 Y-6.4508 Z1.6 F5400 E155.3867 
G1 X-10.336 Y-5.1695 Z1.6 F5400 E155.43608 
G1 X-10.49195 Y-4.83509 Z1.6 F5400 E155.44836 
G1 X4.83503 Y10.49188 Z1.6 F5400 E156.16929 
G1 X4.5967 Y10.603 Z1.6 F5400 E156.17804 
G1 X3.1981 Y11.1028 Z1.6 F5400 E156.22743 
G1 X2.74021 Y11.22549 Z1.6 F5400 E156.2432 
G1 X-11.22253 Y-2.73725 Z1.6 F5400 E156.89997 
G1 X-11.4808 Y-1.3219 Z1.6 F5400 E156.94782 
G1 X-11.53049 Y-0.21679 Z1.6 F5400 E156.98461 
G1 X0.21935 Y11.53306 Z1.6 F5400 E157.53729 
G1 X-1.3205 Y11.481 Z1.6 F5400 E157.58853 
G1 X-2.7814 Y11.2145 Z1.6 F5400 E157.63792 
G1 X-2.98115 Y11.16098 Z1.6 F5400 E157.6448 
G1 X-11.16091 Y2.98122 Z1.6 F5400 E158.02955 
;layer 8 - 1.6mm
G1 X-11.16091 Y2.98122 Z1.6 F1500 E156.72955 ;Retract
G1 X-11.16091 Y2.98122 Z1.6 F3000 ;Retract 2?
G1 X-11.16091 Y2.98122 Z1.8 F1380 ;Plane Change
G1 X-11.4187 Y3.1789 Z1.8 F9000 ;Travel
G1 X-11.4187 Y3.1789 Z1.8 F1500 E158.02955 ;End Retract
G1 X-11.5088 Y2.8425 Z1.8 F2700 E158.04114 
G1 X-11.7974 Y1.1469 Z1.8 F2700 E158.09834 
G1 X-11.8276 Y0.8012 Z1.8 F2700 E158.10988 
G1 X-11.8172 Y-0.9192 Z1.8 F2700 E158.16711 
G1 X-11.7869 Y-1.2657 Z1.8 F2700 E158.17867 
G1 X-11.4784 Y-2.9555 Z1.8 F2700 E158.23581 
G1 X-11.3878 Y-3.2938 Z1.8 F2700 E158.24746 
G1 X-10.7903 Y-4.9054 Z1.8 F2700 E158.30462 
G1 X-10.6433 Y-5.2204 Z1.8 F2700 E158.31618 
G1 X-9.7744 Y-6.7046 Z1.8 F2700 E158.37339 
G1 X-9.5754 Y-6.9889 Z1.8 F2700 E158.38493 
G1 X-8.4611 Y-8.3006 Z1.8 F2700 E158.44217 
G1 X-8.2162 Y-8.5456 Z1.8 F2700 E158.45369 
G1 X-6.8913 Y-9.6438 Z1.8 F2700 E158.51093 
G1 X-6.6068 Y-9.843 Z1.8 F2700 E158.52248 
G1 X-5.1139 Y-10.6929 Z1.8 F2700 E158.57962 
G1 X-4.7964 Y-10.8408 Z1.8 F2700 E158.59127 
G1 X-3.179 Y-11.4186 Z1.8 F2700 E158.64839 
G1 X-2.8412 Y-11.5092 Z1.8 F2700 E158.66003 
G1 X-1.1467 Y-11.7974 Z1.8 F2700 E158.71719 
G1 X-0.8007 Y-11.8276 Z1.8 F2700 E158.72875 
G1 X0.9195 Y-11.8172 Z1.8 F2700 E158.78596 
G1 X1.2658 Y-11.7869 Z1.8 F2700 E158.79752 
G1 X2.9558 Y-11.4783 Z1.8 F2700 E158.85466 
G1 X3.2936 Y-11.3878 Z1.8 F2700 E158.86629 
G1 X4.9059 Y-10.79 Z1.8 F2700 E158.92349 
G1 X5.2207 Y-10.6432 Z1.8 F2700 E158.93504 
G1 X6.7048 Y-9.7744 Z1.8 F2700 E158.99224 
G1 X6.9885 Y-9.5756 Z1.8 F2700 E159.00376 
G1 X8.3011 Y-8.4607 Z1.8 F2700 E159.06104 
G1 X8.5448 Y-8.217 Z1.8 F2700 E159.0725 
G1 X9.644 Y-6.891 Z1.8 F2700 E159.12979 
G1 X9.8421 Y-6.608 Z1.8 F2700 E159.14128 
G1 X10.693 Y-5.1138 Z1.8 F2700 E159.19847 
G1 X10.8406 Y-4.7969 Z1.8 F2700 E159.21009 
G1 X11.4187 Y-3.1789 Z1.8 F2700 E159.26724 
G1 X11.5088 Y-2.8425 Z1.8 F2700 E159.27882 
G1 X11.7973 Y-1.1474 Z1.8 F2700 E159.33601 
G1 X11.8275 Y-0.8015 Z1.8 F2700 E159.34756 
G1 X11.8173 Y0.9185 Z1.8 F2700 E159.40477 
G1 X11.7871 Y1.2639 Z1.8 F2700 E159.4163 
G1 X11.4783 Y2.9564 Z1.8 F2700 E159.47353 
G1 X11.3883 Y3.2924 Z1.8 F2700 E159.48509 
G1 X10.7905 Y4.9048 Z1.8 F2700 E159.54229 
G1 X10.6438 Y5.2194 Z1.8 F2700 E159.55384 
G1 X9.7744 Y6.7047 Z1.8 F2700 E159.61108 
G1 X9.5762 Y6.988 Z1.8 F2700 E159.62258 
G1 X8.4617 Y8.3002 Z1.8 F2700 E159.67984 
G1 X8.2178 Y8.5441 Z1.8 F2700 E159.69131 
G1 X6.892 Y9.6433 Z1.8 F2700 E159.74859 
G1 X6.6083 Y9.8419 Z1.8 F2700 E159.76011 
G1 X5.1132 Y10.6933 Z1.8 F2700 E159.81734 
G1 X4.7987 Y10.8399 Z1.8 F2700 E159.82888 
G1 X3.1797 Y11.4184 Z1.8 F2700 E159.88606 
G1 X2.8431 Y11.5086 Z1.8 F2700 E159.89765 
G1 X1.1478 Y11.7973 Z1.8 F2700 E159.95485 
G1 X0.8024 Y11.8274 Z1.8 F2700 E159.96638 
G1 X-0.9181 Y11.8173 Z1.8 F2700 E160.0236 
G1 X-1.2629 Y11.7872 Z1.8 F2700 E160.03511 
G1 X-2.9557 Y11.4785 Z1.8 F2700 E160.09235 
G1 X-3.2916 Y11.3884 Z1.8 F2700 E160.10391 
G1 X-4.9036 Y10.7911 Z1.8 F2700 E160.16109 
G1 X-5.2195 Y10.6437 Z1.8 F2700 E160.17269 
G1 X-6.703 Y9.7756 Z1.8 F2700 E160.22985 
G1 X-6.9871 Y9.5767 Z1.8 F2700 E160.24139 
G1 X-8.2998 Y8.462 Z1.8 F2700 E160.29867 
G1 X-8.5442 Y8.2175 Z1.8 F2700 E160.31016 
G1 X-9.6431 Y6.8922 Z1.8 F2700 E160.36743 
G1 X-9.8418 Y6.6084 Z1.8 F2700 E160.37895 
G1 X-10.6933 Y5.1131 Z1.8 F2700 E160.43618 
G1 X-10.84 Y4.7984 Z1.8 F2700 E160.44773 
G1 X-11.4187 Y3.1789 Z1.8 F2700 E160.50493 
G1 X-11.8009 Y3.2982 Z1.8 F9000 ;Travel
G1 X-11.8999 Y2.9285 Z1.8 F2700 E160.51766 
G1 X-12.1945 Y1.1974 Z1.8 F2700 E160.57606 
G1 X-12.2277 Y0.8175 Z1.8 F2700 E160.58875 
G1 X-12.2171 Y-0.938 Z1.8 F2700 E160.64714 
G1 X-12.1838 Y-1.3189 Z1.8 F2700 E160.65985 
G1 X-11.8689 Y-3.044 Z1.8 F2700 E160.71818 
G1 X-11.7694 Y-3.4152 Z1.8 F2700 E160.73096 
G1 X-11.1598 Y-5.0595 Z1.8 F2700 E160.78929 
G1 X-10.9979 Y-5.4065 Z1.8 F2700 E160.80202 
G1 X-10.1114 Y-6.9208 Z1.8 F2700 E160.86039 
G1 X-9.8921 Y-7.234 Z1.8 F2700 E160.8731 
G1 X-8.7559 Y-8.5715 Z1.8 F2700 E160.93147 
G1 X-8.4856 Y-8.8419 Z1.8 F2700 E160.94419 
G1 X-7.1344 Y-9.9619 Z1.8 F2700 E161.00256 
G1 X-6.8211 Y-10.1812 Z1.8 F2700 E161.01528 
G1 X-5.297 Y-11.0489 Z1.8 F2700 E161.07361 
G1 X-4.9488 Y-11.2112 Z1.8 F2700 E161.08639 
G1 X-3.298 Y-11.8009 Z1.8 F2700 E161.14469 
G1 X-2.9275 Y-11.9002 Z1.8 F2700 E161.15745 
G1 X-1.1971 Y-12.1945 Z1.8 F2700 E161.21583 
G1 X-0.817 Y-12.2277 Z1.8 F2700 E161.22852 
G1 X0.9383 Y-12.2171 Z1.8 F2700 E161.2869 
G1 X1.3192 Y-12.1838 Z1.8 F2700 E161.29962 
G1 X3.0441 Y-11.8688 Z1.8 F2700 E161.35794 
G1 X3.4153 Y-11.7693 Z1.8 F2700 E161.37072 
G1 X5.059 Y-11.1599 Z1.8 F2700 E161.42903 
G1 X5.4071 Y-10.9976 Z1.8 F2700 E161.4418 
G1 X6.9208 Y-10.1115 Z1.8 F2700 E161.50014 
G1 X7.2339 Y-9.8921 Z1.8 F2700 E161.51286 
G1 X8.5714 Y-8.756 Z1.8 F2700 E161.57122 
G1 X8.8417 Y-8.4857 Z1.8 F2700 E161.58394 
G1 X9.9617 Y-7.1346 Z1.8 F2700 E161.64231 
G1 X10.1806 Y-6.8218 Z1.8 F2700 E161.65501 
G1 X11.049 Y-5.2969 Z1.8 F2700 E161.71337 
G1 X11.211 Y-4.9493 Z1.8 F2700 E161.72613 
G1 X11.8009 Y-3.2982 Z1.8 F2700 E161.78444 
G1 X11.8999 Y-2.9285 Z1.8 F2700 E161.79717 
G1 X12.1944 Y-1.1979 Z1.8 F2700 E161.85556 
G1 X12.2276 Y-0.8179 Z1.8 F2700 E161.86825 
G1 X12.2172 Y0.9374 Z1.8 F2700 E161.92663 
G1 X12.184 Y1.317 Z1.8 F2700 E161.9393 
G1 X11.8688 Y3.0445 Z1.8 F2700 E161.99771 
G1 X11.7698 Y3.414 Z1.8 F2700 E162.01043 
G1 X11.1602 Y5.0583 Z1.8 F2700 E162.06876 
G1 X10.9982 Y5.4058 Z1.8 F2700 E162.08151 
G1 X10.1118 Y6.9202 Z1.8 F2700 E162.13987 
G1 X9.8929 Y7.233 Z1.8 F2700 E162.15257 
G1 X8.7565 Y8.571 Z1.8 F2700 E162.21096 
G1 X8.4871 Y8.8404 Z1.8 F2700 E162.22363 
G1 X7.1344 Y9.9619 Z1.8 F2700 E162.28207 
G1 X6.8227 Y10.1801 Z1.8 F2700 E162.29473 
G1 X5.2973 Y11.0488 Z1.8 F2700 E162.35311 
G1 X4.9502 Y11.2106 Z1.8 F2700 E162.36585 
G1 X3.299 Y11.8006 Z1.8 F2700 E162.42417 
G1 X2.9292 Y11.8997 Z1.8 F2700 E162.43691 
G1 X1.1982 Y12.1944 Z1.8 F2700 E162.49531 
G1 X0.8188 Y12.2275 Z1.8 F2700 E162.50797 
G1 X-0.9368 Y12.2172 Z1.8 F2700 E162.56637 
G1 X-1.3161 Y12.1841 Z1.8 F2700 E162.57903 
G1 X-3.0438 Y11.869 Z1.8 F2700 E162.63744 
G1 X-3.4132 Y11.77 Z1.8 F2700 E162.65016 
G1 X-5.0576 Y11.1606 Z1.8 F2700 E162.70849 
G1 X-5.4051 Y10.9985 Z1.8 F2700 E162.72124 
G1 X-6.9196 Y10.1122 Z1.8 F2700 E162.77961 
G1 X-7.2316 Y9.8938 Z1.8 F2700 E162.79227 
G1 X-8.5713 Y8.7562 Z1.8 F2700 E162.85073 
G1 X-8.84 Y8.4874 Z1.8 F2700 E162.86337 
G1 X-9.9617 Y7.1346 Z1.8 F2700 E162.92182 
G1 X-10.18 Y6.8228 Z1.8 F2700 E162.93448 
G1 X-11.0488 Y5.2972 Z1.8 F2700 E162.99287 
G1 X-11.2107 Y4.9499 Z1.8 F2700 E163.00562 
G1 X-11.8009 Y3.2982 Z1.8 F2700 E163.06396 
G1 X-11.8009 Y3.2982 Z1.8 F1500 E161.76396 ;Retract
G1 X-11.8009 Y3.2982 Z1.8 F3000 ;Retract 2?
G1 X2.98119 Y11.16095 Z1.8 F9000 ;Travel
G1 X2.98119 Y11.16095 Z1.8 F1500 E163.06396 ;End Retract
G1 X11.16108 Y2.98105 Z1.8 F5400 E163.44871 
G1 X11.52398 Y-0.21027 Z1.8 F5400 E163.55554 
G1 X-0.20776 Y11.52147 Z1.8 F5400 E164.10737 
G1 X-1.223 Y11.4895 Z1.8 F5400 E164.14115 
G1 X-2.72947 Y11.21475 Z1.8 F5400 E164.19208 
G1 X11.22244 Y-2.73716 Z1.8 F5400 E164.84834 
G1 X11.132 Y-3.0894 Z1.8 F5400 E164.86043 
G1 X10.5627 Y-4.683 Z1.8 F5400 E164.91672 
G1 X10.49187 Y-4.83502 Z1.8 F5400 E164.92229 
G1 X-4.83515 Y10.492 Z1.8 F5400 E165.64323 
G1 X-5.0804 Y10.3776 Z1.8 F5400 E165.65223 
G1 X-6.63124 Y9.45967 Z1.8 F5400 E165.71217 
G1 X9.45965 Y-6.63122 Z1.8 F5400 E166.46904 
G1 X8.3225 Y-8.0151 Z1.8 F5400 E166.52861 
G1 X8.1688 Y-8.1688 Z1.8 F5400 E166.53584 
G1 X-8.16873 Y8.16873 Z1.8 F5400 E167.30431 
G1 X-8.3224 Y8.015 Z1.8 F5400 E167.31154 
G1 X-9.45962 Y6.63119 Z1.8 F5400 E167.37111 
G1 X6.63117 Y-9.45959 Z1.8 F5400 E168.12797 
G1 X5.0811 Y-10.3773 Z1.8 F5400 E168.18788 
G1 X4.83513 Y-10.49198 Z1.8 F5400 E168.19691 
G1 X-10.4919 Y4.83505 Z1.8 F5400 E168.91785 
G1 X-10.5619 Y4.6849 Z1.8 F5400 E168.92336 
G1 X-11.132 Y3.0894 Z1.8 F5400 E168.97971 
G1 X-11.22244 Y2.73716 Z1.8 F5400 E168.99181 
G1 X2.72934 Y-11.21462 Z1.8 F5400 E169.64805 
G1 X1.2258 Y-11.4892 Z1.8 F5400 E169.69889 
G1 X0.20779 Y-11.5215 Z1.8 F5400 E169.73277 
G1 X-11.52402 Y0.21031 Z1.8 F5400 E170.28459 
G1 X-11.4892 Y-1.2259 Z1.8 F5400 E170.33238 
G1 X-11.16091 Y-2.98123 Z1.8 F5400 E170.39177 
G1 X-2.98105 Y-11.16108 Z1.8 F5400 E170.77653 
;layer 9 - 1.8mm
G1 X-2.98105 Y-11.16108 Z1.8 F1500 E169.47653 ;Retract
G1 X-2.98105 Y-11.16108 Z1.8 F3000 ;Retract 2?
G1 X-2.98105 Y-11.16108 Z2 F1380 ;Plane Change
G1 X-3.0706 Y-11.4476 Z2 F9000 ;Travel
G1 X-3.0706 Y-11.4476 Z2 F1500 E170.77653 ;End Retract
G1 X-2.9355 Y-11.4839 Z2 F2700 E170.78118 
G1 X-1.0351 Y-11.8072 Z2 F2700 E170.8453 
G1 X-0.8981 Y-11.8191 Z2 F2700 E170.84987 
G1 X1.0311 Y-11.8074 Z2 F2700 E170.91404 
G1 X1.1688 Y-11.7954 Z2 F2700 E170.91863 
G1 X3.0642 Y-11.4493 Z2 F2700 E170.98272 
G1 X3.1992 Y-11.4131 Z2 F2700 E170.98737 
G1 X5.0073 Y-10.7428 Z2 F2700 E171.0515 
G1 X5.1319 Y-10.6847 Z2 F2700 E171.05607 
G1 X6.7967 Y-9.7099 Z2 F2700 E171.12024 
G1 X6.9091 Y-9.6313 Z2 F2700 E171.1248 
G1 X8.3788 Y-8.3829 Z2 F2700 E171.18894 
G1 X8.4769 Y-8.2847 Z2 F2700 E171.19356 
G1 X9.7075 Y-6.8002 Z2 F2700 E171.25769 
G1 X9.7866 Y-6.6871 Z2 F2700 E171.26228 
G1 X10.7403 Y-5.0124 Z2 F2700 E171.32638 
G1 X10.7994 Y-4.8854 Z2 F2700 E171.33104 
G1 X11.4476 Y-3.0709 Z2 F2700 E171.39512 
G1 X11.4835 Y-2.9369 Z2 F2700 E171.39974 
G1 X11.8071 Y-1.0358 Z2 F2700 E171.46388 
G1 X11.819 Y-0.8991 Z2 F2700 E171.46844 
G1 X11.8075 Y1.0302 Z2 F2700 E171.53261 
G1 X11.7956 Y1.1664 Z2 F2700 E171.53716 
G1 X11.4494 Y3.0643 Z2 F2700 E171.60133 
G1 X11.4135 Y3.1981 Z2 F2700 E171.60593 
G1 X10.7435 Y5.0056 Z2 F2700 E171.67005 
G1 X10.6848 Y5.1314 Z2 F2700 E171.67467 
G1 X9.7112 Y6.7948 Z2 F2700 E171.73877 
G1 X9.6312 Y6.9091 Z2 F2700 E171.74341 
G1 X8.3827 Y8.3792 Z2 F2700 E171.80756 
G1 X8.2868 Y8.4751 Z2 F2700 E171.81207 
G1 X6.8009 Y9.7071 Z2 F2700 E171.87627 
G1 X6.6887 Y9.7856 Z2 F2700 E171.88082 
G1 X5.0118 Y10.7405 Z2 F2700 E171.94501 
G1 X4.8867 Y10.7989 Z2 F2700 E171.9496 
G1 X3.0718 Y11.4473 Z2 F2700 E172.0137 
G1 X2.9374 Y11.4833 Z2 F2700 E172.01833 
G1 X1.0363 Y11.807 Z2 F2700 E172.08247 
G1 X0.8997 Y11.8189 Z2 F2700 E172.08703 
G1 X-1.0294 Y11.8076 Z2 F2700 E172.15119 
G1 X-1.1656 Y11.7957 Z2 F2700 E172.15574 
G1 X-3.0642 Y11.4494 Z2 F2700 E172.21993 
G1 X-3.1968 Y11.4139 Z2 F2700 E172.22449 
G1 X-5.0058 Y10.7436 Z2 F2700 E172.28866 
G1 X-5.13 Y10.6856 Z2 F2700 E172.29322 
G1 X-6.7944 Y9.7116 Z2 F2700 E172.35736 
G1 X-6.9072 Y9.6326 Z2 F2700 E172.36194 
G1 X-8.3795 Y8.3824 Z2 F2700 E172.42618 
G1 X-8.4752 Y8.2867 Z2 F2700 E172.43068 
G1 X-9.7064 Y6.8017 Z2 F2700 E172.49484 
G1 X-9.7859 Y6.6882 Z2 F2700 E172.49945 
G1 X-10.7403 Y5.0122 Z2 F2700 E172.5636 
G1 X-10.799 Y4.8864 Z2 F2700 E172.56822 
G1 X-11.4477 Y3.0708 Z2 F2700 E172.63234 
G1 X-11.4835 Y2.9372 Z2 F2700 E172.63694 
G1 X-11.8072 Y1.0354 Z2 F2700 E172.70111 
G1 X-11.8191 Y0.8985 Z2 F2700 E172.70568 
G1 X-11.8074 Y-1.0308 Z2 F2700 E172.76985 
G1 X-11.7955 Y-1.1675 Z2 F2700 E172.77441 
G1 X-11.4492 Y-3.065 Z2 F2700 E172.83856 
G1 X-11.413 Y-3.2001 Z2 F2700 E172.84322 
G1 X-10.7435 Y-5.0056 Z2 F2700 E172.90726 
G1 X-10.6844 Y-5.1324 Z2 F2700 E172.91192 
G1 X-9.7098 Y-6.7969 Z2 F2700 E172.97607 
G1 X-9.631 Y-6.9094 Z2 F2700 E172.98064 
G1 X-8.3821 Y-8.3798 Z2 F2700 E173.0448 
G1 X-8.2858 Y-8.4761 Z2 F2700 E173.04933 
G1 X-6.7992 Y-9.7084 Z2 F2700 E173.11356 
G1 X-6.6871 Y-9.7868 Z2 F2700 E173.11811 
G1 X-5.0121 Y-10.7404 Z2 F2700 E173.18221 
G1 X-4.885 Y-10.7996 Z2 F2700 E173.18688 
G1 X-3.0706 Y-11.4476 Z2 F2700 E173.25096 
G1 X-3.1898 Y-11.8298 Z2 F9000 ;Travel
G1 X-3.0215 Y-11.875 Z2 F2700 E173.25675 
G1 X-1.0857 Y-12.2043 Z2 F2700 E173.32206 
G1 X-0.9141 Y-12.2192 Z2 F2700 E173.32779 
G1 X1.0497 Y-12.2073 Z2 F2700 E173.39311 
G1 X1.2222 Y-12.1923 Z2 F2700 E173.39887 
G1 X3.1521 Y-11.8399 Z2 F2700 E173.46412 
G1 X3.3212 Y-11.7946 Z2 F2700 E173.46994 
G1 X5.1604 Y-11.1127 Z2 F2700 E173.53518 
G1 X5.3183 Y-11.0391 Z2 F2700 E173.54098 
G1 X7.0129 Y-10.0469 Z2 F2700 E173.60629 
G1 X7.1542 Y-9.948 Z2 F2700 E173.61203 
G1 X8.6498 Y-8.6776 Z2 F2700 E173.67729 
G1 X8.7733 Y-8.554 Z2 F2700 E173.6831 
G1 X10.0258 Y-7.043 Z2 F2700 E173.74838 
G1 X10.1247 Y-6.9016 Z2 F2700 E173.75412 
G1 X11.0963 Y-5.1955 Z2 F2700 E173.81942 
G1 X11.1698 Y-5.0378 Z2 F2700 E173.82521 
G1 X11.8298 Y-3.1902 Z2 F2700 E173.89046 
G1 X11.8746 Y-3.0229 Z2 F2700 E173.89622 
G1 X12.2042 Y-1.0863 Z2 F2700 E173.96156 
G1 X12.2191 Y-0.9153 Z2 F2700 E173.96727 
G1 X12.2074 Y1.0488 Z2 F2700 E174.0326 
G1 X12.1925 Y1.2197 Z2 F2700 E174.0383 
G1 X11.8399 Y3.1524 Z2 F2700 E174.10365 
G1 X11.7951 Y3.3197 Z2 F2700 E174.10941 
G1 X11.113 Y5.1596 Z2 F2700 E174.17467 
G1 X11.0394 Y5.3174 Z2 F2700 E174.18046 
G1 X10.0482 Y7.0109 Z2 F2700 E174.24573 
G1 X9.9483 Y7.1536 Z2 F2700 E174.25152 
G1 X8.6775 Y8.65 Z2 F2700 E174.31682 
G1 X8.5561 Y8.7714 Z2 F2700 E174.32253 
G1 X7.0432 Y10.0258 Z2 F2700 E174.38789 
G1 X6.9024 Y10.1242 Z2 F2700 E174.39361 
G1 X5.196 Y11.096 Z2 F2700 E174.45892 
G1 X5.0386 Y11.1694 Z2 F2700 E174.4647 
G1 X3.1911 Y11.8295 Z2 F2700 E174.52995 
G1 X3.0235 Y11.8744 Z2 F2700 E174.53572 
G1 X1.0868 Y12.2041 Z2 F2700 E174.60106 
G1 X0.9161 Y12.219 Z2 F2700 E174.60676 
G1 X-1.0481 Y12.2075 Z2 F2700 E174.67209 
G1 X-1.2188 Y12.1926 Z2 F2700 E174.67779 
G1 X-3.1519 Y11.84 Z2 F2700 E174.74315 
G1 X-3.3186 Y11.7954 Z2 F2700 E174.74889 
G1 X-5.1593 Y11.1133 Z2 F2700 E174.81418 
G1 X-5.3161 Y11.0401 Z2 F2700 E174.81993 
G1 X-7.011 Y10.0482 Z2 F2700 E174.88525 
G1 X-7.1517 Y9.9497 Z2 F2700 E174.89096 
G1 X-8.6503 Y8.6772 Z2 F2700 E174.95635 
G1 X-8.7715 Y8.556 Z2 F2700 E174.96205 
G1 X-10.0253 Y7.0438 Z2 F2700 E175.02739 
G1 X-10.124 Y6.9027 Z2 F2700 E175.03311 
G1 X-11.096 Y5.1959 Z2 F2700 E175.09844 
G1 X-11.1695 Y5.0383 Z2 F2700 E175.10423 
G1 X-11.8298 Y3.1903 Z2 F2700 E175.1695 
G1 X-11.8746 Y3.0229 Z2 F2700 E175.17526 
G1 X-12.2043 Y1.0859 Z2 F2700 E175.24061 
G1 X-12.2192 Y0.9147 Z2 F2700 E175.24633 
G1 X-12.2073 Y-1.0494 Z2 F2700 E175.31166 
G1 X-12.1924 Y-1.2207 Z2 F2700 E175.31737 
G1 X-11.8397 Y-3.1531 Z2 F2700 E175.38271 
G1 X-11.7947 Y-3.3211 Z2 F2700 E175.38849 
G1 X-11.1127 Y-5.1603 Z2 F2700 E175.45373 
G1 X-11.0391 Y-5.3183 Z2 F2700 E175.45953 
G1 X-10.0469 Y-7.0129 Z2 F2700 E175.52484 
G1 X-9.9479 Y-7.1542 Z2 F2700 E175.53058 
G1 X-8.6769 Y-8.6506 Z2 F2700 E175.59588 
G1 X-8.5545 Y-8.773 Z2 F2700 E175.60164 
G1 X-7.0428 Y-10.0261 Z2 F2700 E175.66695 
G1 X-6.9009 Y-10.1254 Z2 F2700 E175.67271 
G1 X-5.1956 Y-11.0962 Z2 F2700 E175.73797 
G1 X-5.0372 Y-11.17 Z2 F2700 E175.74379 
G1 X-3.1898 Y-11.8298 Z2 F2700 E175.80903 
G1 X-3.1898 Y-11.8298 Z2 F1500 E174.50903 ;Retract
G1 X-3.1898 Y-11.8298 Z2 F3000 ;Retract 2?
G1 X-11.16106 Y2.98108 Z2 F9000 ;Travel
G1 X-11.16106 Y2.98108 Z2 F1500 E175.80903 ;End Retract
G1 X-2.98289 Y11.15925 Z2 F5400 E176.19371 
G1 X0.20109 Y11.5148 Z2 F5400 E176.30027 
G1 X-11.51244 Y-0.19873 Z2 F5400 E176.85124 
G1 X-11.4978 Y-1.1276 Z2 F5400 E176.88213 
G1 X-11.2069 Y-2.72162 Z2 F5400 E176.93603 
G1 X2.72916 Y11.21445 Z2 F5400 E177.59154 
G1 X2.9823 Y11.1606 Z2 F5400 E177.60014 
G1 X4.83507 Y10.49192 Z2 F5400 E177.66566 
G1 X-10.48819 Y-4.83133 Z2 F5400 E178.38642 
G1 X-10.4181 Y-4.9933 Z2 F5400 E178.39229 
G1 X-9.45927 Y-6.63085 Z2 F5400 E178.4554 
G1 X6.63038 Y9.45881 Z2 F5400 E179.21221 
G1 X8.1615 Y8.1762 Z2 F5400 E179.27864 
G1 X8.10491 Y8.10491 Z2 F5400 E179.28197 
G1 X-8.1682 Y-8.1682 Z2 F5400 E180.0474 
G1 X-8.0845 Y-8.2532 Z2 F5400 E180.05137 
G1 X-6.63026 Y-9.45869 Z2 F5400 E180.1142 
G1 X9.45947 Y6.63104 Z2 F5400 E180.87101 
G1 X10.4663 Y4.8901 Z2 F5400 E180.9379 
G1 X10.46178 Y4.80492 Z2 F5400 E180.94123 
G1 X-4.83503 Y-10.49188 Z2 F5400 E181.66074 
G1 X-2.8709 Y-11.1906 Z2 F5400 E181.73008 
G1 X-2.72939 Y-11.21468 Z2 F5400 E181.73485 
G1 X11.20694 Y2.72166 Z2 F5400 E182.39037 
G1 X11.5076 Y1.0162 Z2 F5400 E182.44797 
G1 X11.51245 Y0.19875 Z2 F5400 E182.47516 
G1 X-0.20115 Y-11.51486 Z2 F5400 E183.02613 
G1 X1.1287 Y-11.4977 Z2 F5400 E183.07037 
G1 X2.98302 Y-11.15912 Z2 F5400 E183.13306 
G1 X11.16096 Y-2.98118 Z2 F5400 E183.51773 
;layer 10 - 2mm
G1 X11.16096 Y-2.98118 Z2 F1500 E182.21773 ;Retract
G1 X11.16096 Y-2.98118 Z2 F3000 ;Retract 2?
G1 X11.16096 Y-2.98118 Z2.2 F1380 ;Plane Change
G1 X11.4653 Y-2.9987 Z2.2 F9000 ;Travel
G1 X11.4653 Y-2.9987 Z2.2 F1500 E183.51773 ;End Retract
G1 X11.8119 Y-0.9625 Z2.2 F2700 E183.58643 
G1 X11.7996 Y1.1026 Z2.2 F2700 E183.65511 
G1 X11.4286 Y3.1356 Z2.2 F2700 E183.72385 
G1 X10.7108 Y5.0721 Z2.2 F2700 E183.79254 
G1 X9.667 Y6.8554 Z2.2 F2700 E183.86127 
G1 X8.3299 Y8.4297 Z2.2 F2700 E183.92996 
G1 X6.7398 Y9.748 Z2.2 F2700 E183.99866 
G1 X4.9447 Y10.7701 Z2.2 F2700 E184.06737 
G1 X3.0003 Y11.465 Z2.2 F2700 E184.13605 
G1 X0.9637 Y11.8117 Z2.2 F2700 E184.20476 
G1 X-1.1018 Y11.7997 Z2.2 F2700 E184.27346 
G1 X-3.1349 Y11.4289 Z2.2 F2700 E184.34219 
G1 X-5.0717 Y10.7111 Z2.2 F2700 E184.41089 
G1 X-6.8547 Y9.6675 Z2.2 F2700 E184.47961 
G1 X-8.4295 Y8.3301 Z2.2 F2700 E184.54833 
G1 X-9.7478 Y6.7399 Z2.2 F2700 E184.61703 
G1 X-10.7703 Y4.9445 Z2.2 F2700 E184.68575 
G1 X-11.4652 Y2.9993 Z2.2 F2700 E184.75445 
G1 X-11.812 Y0.9619 Z2.2 F2700 E184.82319 
G1 X-11.7995 Y-1.1041 Z2.2 F2700 E184.89191 
G1 X-11.4286 Y-3.1361 Z2.2 F2700 E184.96061 
G1 X-10.7106 Y-5.0725 Z2.2 F2700 E185.0293 
G1 X-9.6664 Y-6.8562 Z2.2 F2700 E185.09804 
G1 X-8.3292 Y-8.4301 Z2.2 F2700 E185.16673 
G1 X-6.7383 Y-9.7489 Z2.2 F2700 E185.23546 
G1 X-4.9432 Y-10.7708 Z2.2 F2700 E185.30416 
G1 X-2.9983 Y-11.4655 Z2.2 F2700 E185.37285 
G1 X-0.9605 Y-11.812 Z2.2 F2700 E185.4416 
G1 X1.1044 Y-11.7995 Z2.2 F2700 E185.51028 
G1 X3.1366 Y-11.4284 Z2.2 F2700 E185.57899 
G1 X5.0727 Y-10.7105 Z2.2 F2700 E185.64767 
G1 X6.8563 Y-9.6662 Z2.2 F2700 E185.71642 
G1 X8.43 Y-8.3294 Z2.2 F2700 E185.78509 
G1 X9.7484 Y-6.7391 Z2.2 F2700 E185.8538 
G1 X10.7704 Y-4.9441 Z2.2 F2700 E185.9225 
G1 X11.4653 Y-2.9987 Z2.2 F2700 E185.99121 
G1 X11.8538 Y-3.1002 Z2.2 F9000 ;Travel
G1 X12.2121 Y-0.9949 Z2.2 F2700 E186.06224 
G1 X12.1994 Y1.1398 Z2.2 F2700 E186.13324 
G1 X12.18147 Y1.23818 Z2.2 F2700 E186.13656 
G1 X11.816 Y3.2409 Z2.2 F2700 E186.20428 
G1 X11.78142 Y3.33472 Z2.2 F2700 E186.2076 
G1 X11.074 Y5.2431 Z2.2 F2700 E186.2753 
G1 X11.02357 Y5.32945 Z2.2 F2700 E186.27862 
G1 X9.9948 Y7.0872 Z2.2 F2700 E186.34636 
G1 X8.6127 Y8.7146 Z2.2 F2700 E186.41737 
G1 X8.53581 Y8.77852 Z2.2 F2700 E186.4207 
G1 X6.9682 Y10.0782 Z2.2 F2700 E186.48843 
G1 X6.88131 Y10.1277 Z2.2 F2700 E186.49175 
G1 X5.1121 Y11.1351 Z2.2 F2700 E186.55947 
G1 X5.01793 Y11.16874 Z2.2 F2700 E186.5628 
G1 X3.1029 Y11.8531 Z2.2 F2700 E186.63043 
G1 X3.00434 Y11.87001 Z2.2 F2700 E186.63376 
G1 X0.9968 Y12.2118 Z2.2 F2700 E186.70149 
G1 X0.8968 Y12.21133 Z2.2 F2700 E186.70482 
G1 X-1.1386 Y12.1995 Z2.2 F2700 E186.77252 
G1 X-1.23699 Y12.18164 Z2.2 F2700 E186.77584 
G1 X-3.2399 Y11.8163 Z2.2 F2700 E186.84356 
G1 X-3.33374 Y11.78177 Z2.2 F2700 E186.84689 
G1 X-5.2424 Y11.0744 Z2.2 F2700 E186.91459 
G1 X-5.32879 Y11.02406 Z2.2 F2700 E186.91791 
G1 X-7.0865 Y9.9953 Z2.2 F2700 E186.98565 
G1 X-8.7142 Y8.6131 Z2.2 F2700 E187.05668 
G1 X-8.77815 Y8.53624 Z2.2 F2700 E187.06 
G1 X-10.0775 Y6.9689 Z2.2 F2700 E187.12772 
G1 X-10.12711 Y6.88209 Z2.2 F2700 E187.13104 
G1 X-11.135 Y5.1123 Z2.2 F2700 E187.19878 
G1 X-11.16873 Y5.01816 Z2.2 F2700 E187.20211 
G1 X-11.8535 Y3.1015 Z2.2 F2700 E187.2698 
G1 X-11.87032 Y3.00293 Z2.2 F2700 E187.27313 
G1 X-12.2122 Y0.9943 Z2.2 F2700 E187.3409 
G1 X-12.1993 Y-1.1413 Z2.2 F2700 E187.41193 
G1 X-12.18137 Y-1.23968 Z2.2 F2700 E187.41525 
G1 X-11.8159 Y-3.2417 Z2.2 F2700 E187.48294 
G1 X-11.78122 Y-3.33549 Z2.2 F2700 E187.48627 
G1 X-11.0735 Y-5.2442 Z2.2 F2700 E187.55398 
G1 X-11.02304 Y-5.33053 Z2.2 F2700 E187.5573 
G1 X-9.9944 Y-7.0876 Z2.2 F2700 E187.62502 
G1 X-9.92977 Y-7.1639 Z2.2 F2700 E187.62835 
G1 X-8.6119 Y-8.7152 Z2.2 F2700 E187.69605 
G1 X-8.53504 Y-8.77916 Z2.2 F2700 E187.69937 
G1 X-6.9677 Y-10.0784 Z2.2 F2700 E187.76708 
G1 X-6.88088 Y-10.12801 Z2.2 F2700 E187.77041 
G1 X-5.1117 Y-11.1352 Z2.2 F2700 E187.83812 
G1 X-5.0176 Y-11.16902 Z2.2 F2700 E187.84145 
G1 X-3.1 Y-11.8539 Z2.2 F2700 E187.90917 
G1 X-0.9938 Y-12.2121 Z2.2 F2700 E187.98023 
G1 X1.1415 Y-12.1993 Z2.2 F2700 E188.05125 
G1 X1.23988 Y-12.1814 Z2.2 F2700 E188.05458 
G1 X3.2417 Y-11.8158 Z2.2 F2700 E188.12226 
G1 X3.33551 Y-11.78119 Z2.2 F2700 E188.12559 
G1 X5.2443 Y-11.0734 Z2.2 F2700 E188.1933 
G1 X5.33064 Y-11.02295 Z2.2 F2700 E188.19662 
G1 X7.0884 Y-9.9938 Z2.2 F2700 E188.26437 
G1 X7.16467 Y-9.92913 Z2.2 F2700 E188.2677 
G1 X8.7153 Y-8.612 Z2.2 F2700 E188.33537 
G1 X8.77917 Y-8.53506 Z2.2 F2700 E188.33869 
G1 X10.0785 Y-6.9675 Z2.2 F2700 E188.40641 
G1 X11.1355 Y-5.1113 Z2.2 F2700 E188.47746 
G1 X11.1691 Y-5.01712 Z2.2 F2700 E188.48078 
G1 X11.8536 Y-3.101 Z2.2 F2700 E188.54846 
G1 X11.8538 Y-3.1002 Z2.2 F2700 E188.54848 
G1 X11.8538 Y-3.1002 Z2.2 F1500 E187.24848 ;Retract
G1 X11.8538 Y-3.1002 Z2.2 F3000 ;Retract 2?
G1 X2.99331 Y11.14882 Z2.2 F9000 ;Travel
G1 X2.99331 Y11.14882 Z2.2 F1500 E188.54848 ;End Retract
G1 X11.14978 Y2.99236 Z2.2 F5400 E188.93214 
G1 X11.50732 Y-0.19362 Z2.2 F5400 E189.03877 
G1 X-0.19122 Y11.50493 Z2.2 F5400 E189.58903 
G1 X-1.0738 Y11.4998 Z2.2 F5400 E189.61839 
G1 X-2.71519 Y11.20047 Z2.2 F5400 E189.67388 
G1 X11.20797 Y-2.72269 Z2.2 F5400 E190.32878 
G1 X11.174 Y-2.9222 Z2.2 F5400 E190.33552 
G1 X10.48896 Y-4.83211 Z2.2 F5400 E190.403 
G1 X-4.82547 Y10.48232 Z2.2 F5400 E191.12335 
G1 X-4.9429 Y10.4388 Z2.2 F5400 E191.12751 
G1 X-6.62558 Y9.454 Z2.2 F5400 E191.19236 
G1 X9.45339 Y-6.62496 Z2.2 F5400 E191.94866 
G1 X8.2161 Y-8.1174 Z2.2 F5400 E192.01314 
G1 X8.14154 Y-8.14154 Z2.2 F5400 E192.01647 
G1 X-8.16295 Y8.16295 Z2.2 F5400 E192.78338 
G1 X-8.2353 Y8.09439 Z2.2 F5400 E192.78671 
G1 X-9.45341 Y6.62498 Z2.2 F5400 E192.85019 
G1 X6.62537 Y-9.4538 Z2.2 F5400 E193.60649 
G1 X4.9436 Y-10.4384 Z2.2 F5400 E193.6713 
G1 X4.82538 Y-10.48224 Z2.2 F5400 E193.6755 
G1 X-10.489 Y4.83215 Z2.2 F5400 E194.39584 
G1 X-11.1739 Y2.9228 Z2.2 F5400 E194.46331 
G1 X-11.20797 Y2.72269 Z2.2 F5400 E194.47006 
G1 X2.71509 Y-11.20037 Z2.2 F5400 E195.12495 
G1 X1.0763 Y-11.4996 Z2.2 F5400 E195.18036 
G1 X0.1913 Y-11.50501 Z2.2 F5400 E195.2098 
G1 X-11.50736 Y0.19365 Z2.2 F5400 E195.76007 
G1 X-11.4996 Y-1.0762 Z2.2 F5400 E195.8023 
G1 X-11.14996 Y-2.99218 Z2.2 F5400 E195.86708 
G1 X-2.99357 Y-11.14857 Z2.2 F5400 E196.25073 
;layer 11 - 2.2mm
G1 X-2.99357 Y-11.14857 Z2.2 F1500 E194.95073 ;Retract
G1 X-2.99357 Y-11.14857 Z2.2 F3000 ;Retract 2?
G1 X-2.99357 Y-11.14857 Z2.4 F1380 ;Plane Change
G1 X-3.0774 Y-11.4456 Z2.4 F9000 ;Travel
G1 X-3.0774 Y-11.4456 Z2.4 F1500 E196.25073 ;End Retract
G1 X-2.9076 Y-11.4889 Z2.4 F2700 E196.25656 
G1 X-1.0427 Y-11.8062 Z2.4 F2700 E196.31948 
G1 X-0.8685 Y-11.8193 Z2.4 F2700 E196.32529 
G1 X1.0234 Y-11.8079 Z2.4 F2700 E196.38822 
G1 X1.1972 Y-11.7905 Z2.4 F2700 E196.39402 
G1 X3.0576 Y-11.4508 Z2.4 F2700 E196.45692 
G1 X3.2267 Y-11.4033 Z2.4 F2700 E196.46277 
G1 X5.0007 Y-10.7456 Z2.4 F2700 E196.52569 
G1 X5.1562 Y-10.6708 Z2.4 F2700 E196.53143 
G1 X6.7905 Y-9.7139 Z2.4 F2700 E196.59442 
G1 X6.9318 Y-9.6124 Z2.4 F2700 E196.60021 
G1 X8.3737 Y-8.3877 Z2.4 F2700 E196.66313 
G1 X8.4949 Y-8.2635 Z2.4 F2700 E196.6689 
G1 X9.7026 Y-6.8065 Z2.4 F2700 E196.73185 
G1 X9.8016 Y-6.6614 Z2.4 F2700 E196.73769 
G1 X10.737 Y-5.0188 Z2.4 F2700 E196.80056 
G1 X10.8095 Y-4.8583 Z2.4 F2700 E196.80642 
G1 X11.4453 Y-3.0784 Z2.4 F2700 E196.86928 
G1 X11.4889 Y-2.9076 Z2.4 F2700 E196.87514 
G1 X11.8061 Y-1.044 Z2.4 F2700 E196.93802 
G1 X11.8192 Y-0.8696 Z2.4 F2700 E196.94384 
G1 X11.808 Y1.0223 Z2.4 F2700 E197.00676 
G1 X11.7908 Y1.1949 Z2.4 F2700 E197.01253 
G1 X11.4512 Y3.0564 Z2.4 F2700 E197.07547 
G1 X11.4036 Y3.2258 Z2.4 F2700 E197.08132 
G1 X10.7465 Y4.9986 Z2.4 F2700 E197.1442 
G1 X10.6706 Y5.1562 Z2.4 F2700 E197.15002 
G1 X9.715 Y6.7889 Z2.4 F2700 E197.21294 
G1 X9.613 Y6.9311 Z2.4 F2700 E197.21876 
G1 X8.3892 Y8.3722 Z2.4 F2700 E197.28164 
G1 X8.2628 Y8.4957 Z2.4 F2700 E197.28752 
G1 X6.8078 Y9.7019 Z2.4 F2700 E197.35038 
G1 X6.6627 Y9.801 Z2.4 F2700 E197.35623 
G1 X5.0186 Y10.7372 Z2.4 F2700 E197.41915 
G1 X4.8605 Y10.8086 Z2.4 F2700 E197.42492 
G1 X3.0793 Y11.4451 Z2.4 F2700 E197.48784 
G1 X2.9089 Y11.4886 Z2.4 F2700 E197.49368 
G1 X1.045 Y11.8059 Z2.4 F2700 E197.55657 
G1 X0.8698 Y11.8192 Z2.4 F2700 E197.56241 
G1 X-1.0214 Y11.8081 Z2.4 F2700 E197.62532 
G1 X-1.1941 Y11.7909 Z2.4 F2700 E197.63109 
G1 X-3.056 Y11.4514 Z2.4 F2700 E197.69404 
G1 X-3.2244 Y11.4041 Z2.4 F2700 E197.69986 
G1 X-4.9967 Y10.7472 Z2.4 F2700 E197.76272 
G1 X-5.1571 Y10.6702 Z2.4 F2700 E197.76864 
G1 X-6.7871 Y9.7163 Z2.4 F2700 E197.83145 
G1 X-6.93 Y9.6137 Z2.4 F2700 E197.8373 
G1 X-8.3722 Y8.3892 Z2.4 F2700 E197.90023 
G1 X-8.4945 Y8.2638 Z2.4 F2700 E197.90606 
G1 X-9.7024 Y6.8071 Z2.4 F2700 E197.969 
G1 X-9.8001 Y6.664 Z2.4 F2700 E197.97476 
G1 X-10.7366 Y5.0196 Z2.4 F2700 E198.0377 
G1 X-10.8095 Y4.8583 Z2.4 F2700 E198.04359 
G1 X-11.4453 Y3.0785 Z2.4 F2700 E198.10645 
G1 X-11.4889 Y2.9077 Z2.4 F2700 E198.11231 
G1 X-11.8062 Y1.0429 Z2.4 F2700 E198.17523 
G1 X-11.8193 Y0.869 Z2.4 F2700 E198.18103 
G1 X-11.8079 Y-1.0231 Z2.4 F2700 E198.24396 
G1 X-11.7905 Y-1.1972 Z2.4 F2700 E198.24978 
G1 X-11.4509 Y-3.0572 Z2.4 F2700 E198.31266 
G1 X-11.4035 Y-3.226 Z2.4 F2700 E198.3185 
G1 X-10.7455 Y-5.0011 Z2.4 F2700 E198.38146 
G1 X-10.6706 Y-5.1566 Z2.4 F2700 E198.3872 
G1 X-9.7142 Y-6.7901 Z2.4 F2700 E198.45016 
G1 X-9.6127 Y-6.9315 Z2.4 F2700 E198.45595 
G1 X-8.3875 Y-8.3738 Z2.4 F2700 E198.51889 
G1 X-8.2628 Y-8.4955 Z2.4 F2700 E198.52469 
G1 X-6.8052 Y-9.7037 Z2.4 F2700 E198.58766 
G1 X-6.6624 Y-9.8012 Z2.4 F2700 E198.59341 
G1 X-5.0181 Y-10.7373 Z2.4 F2700 E198.65634 
G1 X-4.8575 Y-10.8098 Z2.4 F2700 E198.6622 
G1 X-3.0774 Y-11.4456 Z2.4 F2700 E198.72507 
G1 X-3.1943 Y-11.8286 Z2.4 F9000 ;Travel
G1 X-2.991 Y-11.8804 Z2.4 F2700 E198.73205 
G1 X-1.0907 Y-12.2037 Z2.4 F2700 E198.79616 
G1 X-0.8827 Y-12.2194 Z2.4 F2700 E198.8031 
G1 X1.0443 Y-12.2078 Z2.4 F2700 E198.86719 
G1 X1.2535 Y-12.1869 Z2.4 F2700 E198.87418 
G1 X3.1474 Y-11.841 Z2.4 F2700 E198.93822 
G1 X3.3509 Y-11.7839 Z2.4 F2700 E198.94525 
G1 X5.1565 Y-11.1145 Z2.4 F2700 E199.0093 
G1 X5.345 Y-11.0238 Z2.4 F2700 E199.01625 
G1 X7.0085 Y-10.0498 Z2.4 F2700 E199.08037 
G1 X7.1784 Y-9.9278 Z2.4 F2700 E199.08732 
G1 X8.6468 Y-8.6806 Z2.4 F2700 E199.1514 
G1 X8.7932 Y-8.5305 Z2.4 F2700 E199.15838 
G1 X10.0223 Y-7.0477 Z2.4 F2700 E199.22243 
G1 X10.141 Y-6.8738 Z2.4 F2700 E199.22944 
G1 X11.0941 Y-5.2 Z2.4 F2700 E199.2935 
G1 X11.1807 Y-5.0082 Z2.4 F2700 E199.3005 
G1 X11.8283 Y-3.1955 Z2.4 F2700 E199.36452 
G1 X11.8804 Y-2.9914 Z2.4 F2700 E199.37153 
G1 X12.2036 Y-1.0921 Z2.4 F2700 E199.43561 
G1 X12.2193 Y-0.8837 Z2.4 F2700 E199.44256 
G1 X12.2079 Y1.0429 Z2.4 F2700 E199.50664 
G1 X12.1872 Y1.2511 Z2.4 F2700 E199.5136 
G1 X11.8414 Y3.1464 Z2.4 F2700 E199.57768 
G1 X11.7842 Y3.3501 Z2.4 F2700 E199.58471 
G1 X11.1152 Y5.1548 Z2.4 F2700 E199.64873 
G1 X11.0239 Y5.3445 Z2.4 F2700 E199.65573 
G1 X10.0512 Y7.0064 Z2.4 F2700 E199.71978 
G1 X9.9282 Y7.1779 Z2.4 F2700 E199.7268 
G1 X8.6817 Y8.6457 Z2.4 F2700 E199.79085 
G1 X8.5312 Y8.7927 Z2.4 F2700 E199.79784 
G1 X7.0484 Y10.022 Z2.4 F2700 E199.86191 
G1 X6.8751 Y10.1403 Z2.4 F2700 E199.86888 
G1 X5.2007 Y11.0938 Z2.4 F2700 E199.93297 
G1 X5.0094 Y11.1802 Z2.4 F2700 E199.93995 
G1 X3.1966 Y11.828 Z2.4 F2700 E200.00398 
G1 X2.9923 Y11.8801 Z2.4 F2700 E200.01099 
G1 X1.093 Y12.2035 Z2.4 F2700 E200.07507 
G1 X0.8842 Y12.2193 Z2.4 F2700 E200.08204 
G1 X-1.042 Y12.208 Z2.4 F2700 E200.14611 
G1 X-1.2502 Y12.1873 Z2.4 F2700 E200.15306 
G1 X-3.1457 Y11.8416 Z2.4 F2700 E200.21715 
G1 X-3.3489 Y11.7846 Z2.4 F2700 E200.22417 
G1 X-5.1533 Y11.1158 Z2.4 F2700 E200.28817 
G1 X-5.3442 Y11.0241 Z2.4 F2700 E200.29522 
G1 X-7.0056 Y10.0518 Z2.4 F2700 E200.35924 
G1 X-7.1763 Y9.9293 Z2.4 F2700 E200.36623 
G1 X-8.6458 Y8.6816 Z2.4 F2700 E200.43035 
G1 X-8.7916 Y8.5322 Z2.4 F2700 E200.43729 
G1 X-10.0222 Y7.0481 Z2.4 F2700 E200.50141 
G1 X-10.1401 Y6.8753 Z2.4 F2700 E200.50837 
G1 X-11.0935 Y5.2013 Z2.4 F2700 E200.57245 
G1 X-11.1807 Y5.0082 Z2.4 F2700 E200.57949 
G1 X-11.8283 Y3.1956 Z2.4 F2700 E200.64351 
G1 X-11.8804 Y2.9915 Z2.4 F2700 E200.65052 
G1 X-12.2037 Y1.0914 Z2.4 F2700 E200.71462 
G1 X-12.2194 Y0.8832 Z2.4 F2700 E200.72157 
G1 X-12.2078 Y-1.044 Z2.4 F2700 E200.78567 
G1 X-12.1869 Y-1.2532 Z2.4 F2700 E200.79266 
G1 X-11.8411 Y-3.1472 Z2.4 F2700 E200.8567 
G1 X-11.784 Y-3.3507 Z2.4 F2700 E200.86373 
G1 X-11.1145 Y-5.1565 Z2.4 F2700 E200.92778 
G1 X-11.0236 Y-5.3454 Z2.4 F2700 E200.93476 
G1 X-10.05 Y-7.0082 Z2.4 F2700 E200.99884 
G1 X-9.9278 Y-7.1785 Z2.4 F2700 E201.00582 
G1 X-8.6804 Y-8.647 Z2.4 F2700 E201.0699 
G1 X-8.5304 Y-8.7933 Z2.4 F2700 E201.07687 
G1 X-7.0469 Y-10.023 Z2.4 F2700 E201.14096 
G1 X-6.8741 Y-10.1409 Z2.4 F2700 E201.14792 
G1 X-5.1998 Y-11.0941 Z2.4 F2700 E201.212 
G1 X-5.0072 Y-11.1811 Z2.4 F2700 E201.21903 
G1 X-3.1943 Y-11.8286 Z2.4 F2700 E201.28305 
G1 X-3.1943 Y-11.8286 Z2.4 F1500 E199.98305 ;Retract
G1 X-3.1943 Y-11.8286 Z2.4 F3000 ;Retract 2?
G1 X-11.16022 Y2.98192 Z2.4 F9000 ;Travel
G1 X-11.16022 Y2.98192 Z2.4 F1500 E201.28305 ;End Retract
